assets/luts/ANDP-KodakEktachromeE100-32.CUBE
#Created by: Adobe Photoshop Export Color Lookup Plugin
#Copyright: (C) Copyright 2024 Andp Filmstyles
TITLE "Kodak Ektachrome 100 - 32"
#LUT size
LUT_3D_SIZE 32
#data domain
DOMAIN_MIN 0.0 0.0 0.0
DOMAIN_MAX 1.0 1.0 1.0
#LUT data points
0.081177 0.069580 0.073700
0.097595 0.070251 0.071228
0.114624 0.070740 0.069031
0.132324 0.071259 0.066895
0.150818 0.071899 0.064972
0.170135 0.072540 0.062958
0.190369 0.073303 0.061859
0.212128 0.074127 0.061218
0.235718 0.075134 0.060577
0.261780 0.076660 0.060394
0.291626 0.078491 0.060883
0.326965 0.080841 0.061859
0.366791 0.083984 0.063171
0.405518 0.087524 0.064789
0.444092 0.091309 0.066620
0.484863 0.095581 0.068665
0.526031 0.099915 0.070770
0.564087 0.103851 0.072601
0.598267 0.107269 0.074158
0.628662 0.110168 0.075470
0.655945 0.112701 0.076538
0.680634 0.114868 0.077423
0.703339 0.116760 0.078247
0.724335 0.118469 0.078949
0.744293 0.120026 0.079590
0.763519 0.121429 0.080139
0.780212 0.122314 0.080505
0.795349 0.122742 0.080750
0.809601 0.123077 0.080902
0.823334 0.123230 0.081024
0.837006 0.123383 0.081146
0.850830 0.123566 0.081238
0.081909 0.086487 0.081848
0.097534 0.086761 0.078522
0.114319 0.087189 0.076050
0.131714 0.087219 0.073486
0.150024 0.086792 0.070374
0.169373 0.087555 0.068237
0.189972 0.088287 0.066132
0.211823 0.089203 0.064423
0.235413 0.089966 0.063354
0.261658 0.091003 0.062561
0.291504 0.092529 0.062225
0.326721 0.095001 0.063110
0.366455 0.098145 0.064423
0.405151 0.101807 0.066071
0.443909 0.105621 0.067871
0.484619 0.109863 0.069946
0.525879 0.114288 0.072052
0.563934 0.118317 0.073914
0.598145 0.121826 0.075500
0.628540 0.124786 0.076782
0.655823 0.127380 0.077911
0.680542 0.129578 0.078796
0.703217 0.131561 0.079620
0.724243 0.133331 0.080353
0.744232 0.134918 0.081024
0.763489 0.136383 0.081604
0.780151 0.137238 0.081940
0.795288 0.137756 0.082153
0.809570 0.138092 0.082367
0.823273 0.138275 0.082458
0.836975 0.138458 0.082581
0.850800 0.138641 0.082672
0.083740 0.102539 0.089447
0.097473 0.102997 0.086365
0.114380 0.103302 0.082764
0.131897 0.103699 0.080200
0.149963 0.104095 0.077728
0.169037 0.104492 0.075226
0.189209 0.104706 0.072510
0.211121 0.104797 0.069702
0.234985 0.105194 0.067047
0.261078 0.106415 0.065582
0.291138 0.107758 0.064697
0.326202 0.109528 0.064606
0.365906 0.112579 0.065704
0.404541 0.116211 0.067352
0.443298 0.120056 0.069153
0.484161 0.124451 0.071228
0.525421 0.128937 0.073364
0.563568 0.133087 0.075256
0.597870 0.136688 0.076874
0.628326 0.139709 0.078186
0.655670 0.142395 0.079315
0.680420 0.144684 0.080292
0.703094 0.146729 0.081085
0.724121 0.148499 0.081848
0.744080 0.150208 0.082520
0.763336 0.151733 0.083130
0.780121 0.152618 0.083466
0.795227 0.153168 0.083710
0.809540 0.153503 0.083893
0.823242 0.153748 0.084015
0.836945 0.153961 0.084137
0.850739 0.154144 0.084259
0.085144 0.118500 0.097198
0.098694 0.119141 0.094330
0.113647 0.119812 0.090881
0.131866 0.120209 0.087219
0.150360 0.120483 0.084534
0.169312 0.120972 0.081970
0.189331 0.121582 0.079376
0.210968 0.122223 0.076630
0.234528 0.122894 0.073792
0.260590 0.123474 0.070831
0.290283 0.124237 0.068298
0.325439 0.125549 0.067169
0.364960 0.127991 0.067444
0.403656 0.131073 0.068756
0.442413 0.134827 0.070526
0.483368 0.139221 0.072601
0.524780 0.143921 0.074768
0.563049 0.148193 0.076691
0.597443 0.151917 0.078339
0.627960 0.155060 0.079712
0.655396 0.157867 0.080872
0.680176 0.160248 0.081848
0.702881 0.162354 0.082672
0.723938 0.164276 0.083466
0.743927 0.165985 0.084106
0.763214 0.167572 0.084747
0.779999 0.168518 0.085144
0.795166 0.169098 0.085358
0.809509 0.169464 0.085571
0.823212 0.169708 0.085693
0.836853 0.169952 0.085815
0.850677 0.170197 0.085968
0.086517 0.134949 0.105316
0.099854 0.135620 0.102661
0.114014 0.136414 0.099609
0.130676 0.137238 0.095825
0.150116 0.137665 0.092224
0.169739 0.137909 0.089355
0.189758 0.138489 0.086548
0.211273 0.139252 0.083679
0.234558 0.140198 0.080811
0.260498 0.141266 0.077759
0.290192 0.142639 0.074615
0.324677 0.144501 0.071899
0.363770 0.145782 0.070374
0.402649 0.148010 0.070770
0.441345 0.150574 0.072113
0.482330 0.154633 0.074066
0.523865 0.159302 0.076263
0.562317 0.163727 0.078247
0.596893 0.167633 0.079926
0.627502 0.170959 0.081329
0.654999 0.173828 0.082520
0.679840 0.176331 0.083527
0.702606 0.178528 0.084412
0.723724 0.180542 0.085205
0.743713 0.182343 0.085876
0.763031 0.183990 0.086517
0.779907 0.185028 0.086945
0.795105 0.185669 0.087158
0.809418 0.186096 0.087372
0.823151 0.186340 0.087494
0.836823 0.186615 0.087646
0.850586 0.186859 0.087769
0.087952 0.151733 0.113831
0.101044 0.152588 0.111389
0.114960 0.153503 0.108521
0.129944 0.154419 0.105286
0.148438 0.155304 0.101196
0.169159 0.155914 0.097778
0.190094 0.156128 0.094696
0.211639 0.156860 0.091675
0.234802 0.157837 0.088470
0.260437 0.159088 0.085205
0.289886 0.160706 0.081848
0.324585 0.162903 0.078552
0.363464 0.165771 0.075989
0.401886 0.168762 0.074768
0.441315 0.171234 0.074921
0.481781 0.172729 0.076080
0.522919 0.175903 0.077972
0.561340 0.179901 0.079895
0.596100 0.183960 0.081635
0.626923 0.187439 0.083069
0.654510 0.190460 0.084320
0.679413 0.193085 0.085358
0.702271 0.195404 0.086243
0.723419 0.197479 0.087067
0.743469 0.199402 0.087799
0.762817 0.201172 0.088440
0.779785 0.202240 0.088898
0.794983 0.202911 0.089142
0.809357 0.203369 0.089325
0.823059 0.203613 0.089447
0.836731 0.203949 0.089600
0.850494 0.204163 0.089722
0.089569 0.169220 0.123108
0.102448 0.170135 0.120850
0.115997 0.171265 0.118195
0.130554 0.172363 0.115234
0.147003 0.173401 0.111633
0.167053 0.174530 0.107513
0.189240 0.175171 0.104095
0.211792 0.175476 0.100769
0.235168 0.176331 0.097412
0.260712 0.177643 0.093903
0.289703 0.179382 0.090088
0.324036 0.181824 0.086395
0.362823 0.184937 0.083282
0.401398 0.188446 0.081299
0.440613 0.192047 0.079956
0.482361 0.195618 0.079559
0.523529 0.198700 0.080872
0.561188 0.200500 0.082367
0.595367 0.201935 0.083649
0.626190 0.204620 0.084961
0.653961 0.207764 0.086243
0.678955 0.210510 0.087280
0.701843 0.212921 0.088226
0.723053 0.215088 0.089050
0.743164 0.217072 0.089813
0.762512 0.218903 0.090485
0.779633 0.220062 0.090973
0.794861 0.220703 0.091217
0.809296 0.221222 0.091431
0.822998 0.221497 0.091583
0.836639 0.221832 0.091705
0.850403 0.222137 0.091858
0.091217 0.187531 0.133209
0.104004 0.188568 0.131134
0.117279 0.189850 0.128693
0.131348 0.191132 0.125916
0.146667 0.192383 0.122742
0.165009 0.193573 0.118835
0.186981 0.194946 0.114655
0.210724 0.195648 0.111206
0.235077 0.196075 0.107605
0.260803 0.197205 0.103973
0.289673 0.198975 0.100098
0.323395 0.201630 0.095978
0.361969 0.204956 0.091949
0.400391 0.208649 0.089294
0.439423 0.212494 0.087372
0.481415 0.216675 0.085815
0.523926 0.220825 0.085052
0.561615 0.224396 0.085785
0.595612 0.226746 0.086945
0.625946 0.227203 0.087830
0.653442 0.227905 0.088684
0.678406 0.228699 0.089417
0.701355 0.230865 0.090332
0.722626 0.233032 0.091156
0.742767 0.235077 0.091919
0.762146 0.236938 0.092621
0.779449 0.238190 0.093109
0.794708 0.238892 0.093384
0.809174 0.239441 0.093597
0.822876 0.239716 0.093750
0.836487 0.240082 0.093872
0.850189 0.240417 0.094025
0.092926 0.206573 0.144165
0.105652 0.207733 0.142181
0.118774 0.209137 0.140015
0.132568 0.210693 0.137451
0.147217 0.212189 0.134644
0.163788 0.213531 0.131287
0.184174 0.214813 0.126801
0.208313 0.216492 0.122284
0.233856 0.217163 0.118866
0.260590 0.217834 0.114960
0.289551 0.219421 0.111023
0.323090 0.222015 0.106934
0.361115 0.225555 0.102875
0.399475 0.229370 0.099213
0.438293 0.233337 0.096130
0.480103 0.237701 0.093628
0.523010 0.242126 0.091919
0.561737 0.246094 0.091156
0.595795 0.249390 0.091064
0.625946 0.251740 0.091461
0.653259 0.253174 0.092102
0.678070 0.253448 0.092682
0.700867 0.251770 0.092926
0.722168 0.252136 0.093445
0.742340 0.253265 0.094086
0.761780 0.255096 0.094757
0.779205 0.256409 0.095276
0.794434 0.257141 0.095551
0.808960 0.257721 0.095795
0.822632 0.258057 0.095947
0.836182 0.258423 0.096100
0.849854 0.258789 0.096252
0.094788 0.226227 0.155731
0.107361 0.227539 0.153900
0.120392 0.229034 0.151825
0.133972 0.230774 0.149475
0.148102 0.232452 0.146851
0.163452 0.234100 0.143921
0.182281 0.235474 0.139862
0.204742 0.236938 0.135010
0.231598 0.238892 0.130188
0.259277 0.239410 0.126678
0.289215 0.240448 0.122375
0.322815 0.242828 0.118164
0.360382 0.246460 0.114380
0.398346 0.250305 0.110779
0.437164 0.254364 0.107239
0.479004 0.258759 0.103363
0.521851 0.263275 0.100037
0.561340 0.267242 0.097992
0.595520 0.270752 0.097260
0.625854 0.273529 0.096832
0.653168 0.275696 0.096619
0.677795 0.277161 0.096588
0.700500 0.278046 0.096741
0.721619 0.278015 0.096985
0.741730 0.276611 0.097107
0.761169 0.275208 0.097260
0.778809 0.275269 0.097534
0.794067 0.275391 0.097748
0.808594 0.275879 0.097992
0.822296 0.276245 0.098145
0.835876 0.276642 0.098297
0.849548 0.276978 0.098480
0.096710 0.246582 0.167877
0.109222 0.248047 0.166168
0.122070 0.249573 0.164246
0.135529 0.251404 0.162018
0.149445 0.253265 0.159546
0.164124 0.255157 0.156860
0.180634 0.256775 0.153534
0.202148 0.258179 0.148712
0.227448 0.259888 0.143188
0.257294 0.261932 0.138245
0.287842 0.262329 0.134308
0.322571 0.264099 0.129639
0.359985 0.267395 0.125671
0.397186 0.271301 0.122437
0.435944 0.275299 0.118805
0.477814 0.279724 0.114807
0.520844 0.284180 0.110626
0.560730 0.288208 0.106842
0.595612 0.291565 0.104218
0.625671 0.294495 0.103027
0.652893 0.296844 0.102325
0.677551 0.298676 0.101898
0.700317 0.300018 0.101562
0.721344 0.300964 0.101349
0.741241 0.301514 0.101257
0.760559 0.301483 0.101135
0.778198 0.300110 0.100983
0.793610 0.296844 0.100494
0.808228 0.296539 0.100586
0.821991 0.296417 0.100647
0.835541 0.296417 0.100769
0.849213 0.296844 0.100952
0.098633 0.267029 0.180176
0.111023 0.268646 0.178528
0.123749 0.270264 0.176727
0.137085 0.272247 0.174652
0.150909 0.274323 0.172333
0.165222 0.276398 0.169800
0.180542 0.278351 0.166962
0.199524 0.279999 0.162933
0.223633 0.281647 0.157440
0.252533 0.283722 0.151093
0.285858 0.285309 0.146149
0.321350 0.286285 0.141541
0.359772 0.288910 0.137085
0.396729 0.292572 0.133759
0.434692 0.296539 0.130493
0.476501 0.300812 0.126373
0.519806 0.305237 0.122070
0.559937 0.309174 0.117889
0.595490 0.312439 0.114197
0.626038 0.315247 0.111420
0.652924 0.317688 0.109528
0.677521 0.319672 0.108124
0.700104 0.321259 0.107208
0.721100 0.322510 0.106659
0.741089 0.323456 0.106201
0.760406 0.324066 0.105835
0.778320 0.324066 0.105469
0.793579 0.323029 0.104858
0.808075 0.322693 0.104614
0.821808 0.322662 0.104492
0.835297 0.322418 0.104401
0.848877 0.322449 0.104462
0.100708 0.287994 0.192810
0.112946 0.289734 0.191254
0.125580 0.291504 0.189545
0.138702 0.293518 0.187622
0.152405 0.295837 0.185455
0.166595 0.298065 0.183014
0.181366 0.300262 0.180359
0.197510 0.302277 0.177277
0.219971 0.304047 0.172180
0.247162 0.306030 0.166046
0.281311 0.308594 0.158600
0.319550 0.309540 0.153748
0.359131 0.311401 0.148956
0.396545 0.314514 0.145325
0.434265 0.318390 0.142059
0.475372 0.322723 0.138306
0.518677 0.327118 0.133972
0.559174 0.331024 0.129791
0.595306 0.334198 0.125824
0.626587 0.336792 0.122437
0.653595 0.339111 0.119904
0.677887 0.341034 0.117645
0.700226 0.342682 0.115723
0.721130 0.344086 0.114105
0.741028 0.345215 0.112854
0.760223 0.346130 0.111633
0.778351 0.346588 0.110931
0.793732 0.346008 0.109985
0.808472 0.345886 0.109375
0.822388 0.346069 0.108978
0.835938 0.346100 0.108673
0.849579 0.346252 0.108398
0.102783 0.309235 0.205750
0.114960 0.311249 0.204437
0.127441 0.313263 0.202881
0.140381 0.315491 0.201141
0.153961 0.318054 0.199158
0.167969 0.320557 0.196899
0.182556 0.323029 0.194427
0.197754 0.325470 0.191772
0.215942 0.327698 0.188171
0.241821 0.329956 0.182343
0.273773 0.332550 0.175110
0.315918 0.335358 0.166565
0.357635 0.335846 0.161987
0.396271 0.338165 0.157867
0.434204 0.341675 0.154449
0.475159 0.345978 0.150787
0.517670 0.350525 0.146973
0.558319 0.354462 0.142792
0.594757 0.357727 0.138824
0.626678 0.360229 0.135193
0.654480 0.362396 0.132172
0.678802 0.364197 0.129791
0.700989 0.365814 0.127777
0.721741 0.367188 0.125854
0.741364 0.368225 0.123901
0.760468 0.369110 0.121948
0.778748 0.369690 0.119995
0.794067 0.369324 0.117859
0.808807 0.369293 0.116180
0.822632 0.369537 0.115234
0.836273 0.369690 0.114258
0.849945 0.369934 0.113525
0.105225 0.334167 0.221130
0.117249 0.336273 0.219849
0.129578 0.338379 0.218414
0.142303 0.340546 0.216797
0.155731 0.343262 0.214966
0.169556 0.345978 0.212860
0.183990 0.348633 0.210510
0.198822 0.351257 0.208008
0.214386 0.353668 0.205231
0.236084 0.355835 0.200500
0.266083 0.358459 0.193573
0.306183 0.361877 0.184479
0.355804 0.364960 0.176239
0.394867 0.364899 0.172302
0.434448 0.367554 0.168243
0.475403 0.371613 0.164612
0.517944 0.376160 0.160767
0.558105 0.380188 0.156982
0.594330 0.383698 0.153381
0.626526 0.386200 0.149689
0.655029 0.388062 0.146210
0.679993 0.389587 0.143341
0.702271 0.390991 0.141144
0.722839 0.392273 0.139191
0.742340 0.393188 0.137238
0.761322 0.393951 0.135162
0.779480 0.394409 0.133026
0.794983 0.393890 0.130585
0.809692 0.393738 0.128479
0.823608 0.394012 0.126678
0.837219 0.394226 0.124908
0.850891 0.394470 0.123169
0.108124 0.363251 0.239288
0.119934 0.365417 0.238098
0.132111 0.367523 0.236725
0.144653 0.369843 0.235260
0.157837 0.372681 0.233551
0.171539 0.375641 0.231628
0.185699 0.378326 0.229340
0.200348 0.380981 0.226959
0.215485 0.383636 0.224335
0.231659 0.385956 0.221283
0.257996 0.388123 0.214935
0.294952 0.390808 0.205841
0.345856 0.394989 0.194611
0.393646 0.396484 0.187805
0.433441 0.396515 0.183746
0.476593 0.399567 0.179321
0.519043 0.403778 0.175446
0.559021 0.407928 0.171814
0.595306 0.411316 0.168152
0.627106 0.413971 0.164825
0.655457 0.415894 0.161499
0.680908 0.417297 0.158356
0.703766 0.418365 0.155609
0.724365 0.419464 0.153503
0.743896 0.420319 0.151489
0.762848 0.420959 0.149353
0.781006 0.421387 0.147217
0.796722 0.420807 0.144806
0.811371 0.420349 0.142517
0.825378 0.420624 0.140686
0.838989 0.420807 0.138824
0.852600 0.421051 0.137024
0.111237 0.394897 0.259003
0.122894 0.397400 0.258026
0.134888 0.399902 0.256836
0.147217 0.402466 0.255493
0.160217 0.405640 0.254028
0.173706 0.408966 0.252319
0.187714 0.411865 0.250214
0.202087 0.414612 0.247864
0.217041 0.417450 0.245453
0.232483 0.420166 0.242798
0.250488 0.422333 0.238983
0.283234 0.424225 0.230469
0.329468 0.427155 0.218994
0.384186 0.432129 0.207855
0.432983 0.431732 0.200714
0.475830 0.431213 0.195953
0.520874 0.434235 0.191162
0.561127 0.437958 0.187225
0.597290 0.441254 0.183685
0.629242 0.443817 0.180237
0.657379 0.445709 0.177063
0.682709 0.447144 0.173950
0.705597 0.448120 0.171143
0.726624 0.448822 0.168488
0.746002 0.449585 0.166473
0.764832 0.450134 0.164337
0.783020 0.450500 0.162140
0.799133 0.449951 0.159729
0.813721 0.449219 0.157318
0.827820 0.449493 0.155518
0.841370 0.449615 0.153656
0.855072 0.449829 0.151764
0.114563 0.429199 0.279938
0.126007 0.431824 0.278961
0.137817 0.434479 0.277954
0.149933 0.437134 0.276642
0.162720 0.440460 0.275330
0.176056 0.443939 0.273743
0.189880 0.447174 0.271820
0.204041 0.449951 0.269531
0.218719 0.452759 0.267151
0.233917 0.455688 0.264648
0.249695 0.458160 0.261688
0.272614 0.460114 0.256012
0.313568 0.462372 0.245331
0.364227 0.466003 0.233490
0.422424 0.470917 0.221954
0.476501 0.468719 0.213562
0.520905 0.467560 0.208038
0.563873 0.469971 0.203247
0.600433 0.472839 0.199310
0.632538 0.475128 0.195648
0.660767 0.476837 0.192322
0.685791 0.478210 0.189362
0.708618 0.479126 0.186584
0.729736 0.479675 0.183777
0.749542 0.480011 0.181152
0.768250 0.480347 0.178955
0.786285 0.480591 0.176758
0.802460 0.480286 0.174622
0.816895 0.479462 0.172272
0.831055 0.479675 0.170441
0.844666 0.479736 0.168488
0.858368 0.479889 0.166595
0.117920 0.463562 0.300568
0.129242 0.466217 0.299652
0.140839 0.468903 0.298615
0.152802 0.471710 0.297424
0.165436 0.475159 0.296143
0.178619 0.478729 0.294617
0.192230 0.482117 0.292816
0.206238 0.485168 0.290680
0.220673 0.488007 0.288361
0.235657 0.490967 0.285889
0.251190 0.493805 0.283264
0.268158 0.495972 0.279694
0.299042 0.498444 0.271759
0.344971 0.501617 0.260437
0.398468 0.506134 0.248718
0.466248 0.510803 0.235138
0.522522 0.506836 0.226166
0.564575 0.504669 0.220184
0.603699 0.506226 0.215454
0.636353 0.508179 0.211609
0.664795 0.509674 0.208038
0.690002 0.510742 0.204834
0.712891 0.511505 0.201904
0.733917 0.511993 0.199188
0.753906 0.512085 0.196350
0.773071 0.512024 0.193512
0.791107 0.511963 0.191101
0.807709 0.511658 0.188873
0.821869 0.510651 0.186584
0.835938 0.510712 0.184692
0.849640 0.510834 0.182770
0.863312 0.510986 0.180878
0.121338 0.496887 0.320251
0.132446 0.499542 0.319336
0.143890 0.502167 0.318298
0.155792 0.505157 0.317139
0.168396 0.508698 0.315826
0.181427 0.512329 0.314362
0.194885 0.515778 0.312622
0.208771 0.519104 0.310730
0.223083 0.522034 0.308411
0.237885 0.525024 0.306030
0.253204 0.528015 0.303528
0.269012 0.530579 0.300568
0.290649 0.533173 0.295654
0.327423 0.536499 0.286621
0.376465 0.540924 0.275421
0.439697 0.546417 0.262054
0.514526 0.550140 0.247253
0.567047 0.544769 0.238373
0.605103 0.541656 0.232361
0.639771 0.542450 0.227905
0.669128 0.543518 0.224121
0.694427 0.544556 0.220825
0.717468 0.545105 0.217682
0.738647 0.545502 0.214844
0.758698 0.545624 0.212036
0.778076 0.545471 0.209076
0.796448 0.545074 0.206177
0.813812 0.544495 0.203369
0.828156 0.543335 0.200989
0.842133 0.543152 0.199005
0.855743 0.543243 0.197144
0.869507 0.543304 0.195190
0.124786 0.528839 0.338867
0.135803 0.531433 0.337952
0.147156 0.534027 0.336884
0.159119 0.537292 0.335724
0.171631 0.540894 0.334351
0.184631 0.544464 0.332886
0.198029 0.548035 0.331299
0.211823 0.551422 0.329437
0.226044 0.554626 0.327301
0.240723 0.557556 0.324890
0.255890 0.560577 0.322418
0.271606 0.563477 0.319733
0.287964 0.565979 0.316498
0.315063 0.569397 0.310303
0.357147 0.573944 0.300659
0.414520 0.579651 0.288269
0.489624 0.586151 0.272766
0.561798 0.588318 0.258728
0.608032 0.581879 0.250366
0.641693 0.578125 0.244568
0.672333 0.578308 0.240417
0.699036 0.578735 0.236694
0.722015 0.579285 0.233734
0.743439 0.579590 0.230713
0.763733 0.579681 0.227783
0.783081 0.579620 0.224915
0.801727 0.579254 0.221954
0.819397 0.578674 0.219025
0.834351 0.577545 0.216431
0.848602 0.577118 0.214172
0.862213 0.577118 0.212250
0.876038 0.577209 0.210236
0.128418 0.558838 0.356079
0.139313 0.561371 0.355072
0.150757 0.564270 0.353973
0.162811 0.567719 0.352783
0.175323 0.571289 0.351471
0.188293 0.574799 0.350006
0.201691 0.578400 0.348450
0.215424 0.581757 0.346619
0.229645 0.585052 0.344482
0.244293 0.588104 0.342102
0.259430 0.591095 0.339600
0.275055 0.594025 0.336945
0.291138 0.596771 0.334015
0.309753 0.599670 0.330292
0.341614 0.604218 0.323364
0.392761 0.610291 0.312347
0.462341 0.617340 0.297943
0.540802 0.624176 0.281860
0.604858 0.624542 0.269836
0.644531 0.617676 0.262024
0.674591 0.613556 0.256470
0.701660 0.613098 0.252563
0.726379 0.613068 0.249115
0.748138 0.613281 0.246124
0.768646 0.613342 0.243073
0.788177 0.613312 0.240143
0.806854 0.613037 0.237274
0.824646 0.612518 0.234344
0.840393 0.611664 0.231750
0.854706 0.611023 0.229309
0.868500 0.611023 0.227386
0.882477 0.611023 0.225220
0.132111 0.587189 0.371979
0.143097 0.589844 0.371033
0.154724 0.593079 0.369995
0.166870 0.596527 0.368683
0.179413 0.599976 0.367279
0.192383 0.603424 0.365723
0.205780 0.606842 0.364044
0.219574 0.610229 0.362152
0.233795 0.613464 0.360016
0.248474 0.616638 0.357727
0.263641 0.619598 0.355194
0.279266 0.622528 0.352448
0.295441 0.625458 0.349548
0.311768 0.628143 0.346527
0.333923 0.631683 0.342072
0.374237 0.637634 0.333679
0.437744 0.645386 0.320648
0.514465 0.653198 0.305115
0.587921 0.659424 0.290131
0.642609 0.658691 0.280090
0.676880 0.651794 0.272949
0.704132 0.647522 0.267761
0.728790 0.646454 0.264038
0.751617 0.646240 0.260864
0.773254 0.645996 0.257629
0.792938 0.645935 0.254700
0.811920 0.645782 0.251648
0.829590 0.645294 0.248871
0.846405 0.644775 0.246063
0.860748 0.644012 0.243652
0.874817 0.643951 0.241608
0.888855 0.643982 0.239380
0.136078 0.613770 0.386749
0.147339 0.616791 0.385712
0.159119 0.620117 0.384491
0.171295 0.623413 0.383148
0.183899 0.626740 0.381592
0.196930 0.630096 0.379944
0.210358 0.633423 0.378204
0.224213 0.636719 0.376221
0.238556 0.639893 0.373993
0.253326 0.643066 0.371674
0.268555 0.646027 0.369049
0.284241 0.648956 0.366272
0.300446 0.651917 0.363373
0.316925 0.654785 0.360382
0.333466 0.657471 0.357300
0.362915 0.662262 0.351440
0.416962 0.669983 0.340515
0.490326 0.678650 0.325867
0.564880 0.686279 0.310852
0.628540 0.691132 0.297882
0.675629 0.690277 0.289429
0.705536 0.683533 0.282959
0.731079 0.679596 0.278076
0.753967 0.677673 0.274231
0.776093 0.677399 0.271088
0.796692 0.676941 0.268036
0.816315 0.676605 0.264954
0.834167 0.676270 0.262177
0.851379 0.675903 0.259399
0.866302 0.675201 0.256866
0.880646 0.675110 0.254608
0.894867 0.675079 0.252319
0.140411 0.639069 0.400116
0.151947 0.642242 0.398926
0.163788 0.645416 0.397583
0.176056 0.648560 0.396057
0.188751 0.651794 0.394409
0.201843 0.655090 0.392761
0.215424 0.658386 0.391022
0.229401 0.661652 0.389069
0.243805 0.664734 0.386688
0.258728 0.667816 0.384186
0.274078 0.670837 0.381531
0.289886 0.673676 0.378662
0.306213 0.676605 0.375671
0.322784 0.679565 0.372711
0.339539 0.682373 0.369659
0.358612 0.685333 0.366150
0.399872 0.691833 0.357941
0.468048 0.700958 0.344513
0.542786 0.709625 0.329681
0.609375 0.716400 0.316284
0.663696 0.719971 0.305420
0.704529 0.719330 0.298309
0.731628 0.713196 0.292389
0.755859 0.709625 0.287659
0.778168 0.707153 0.283508
0.799225 0.706573 0.280365
0.819214 0.706116 0.277374
0.838135 0.705566 0.274414
0.855927 0.705139 0.271576
0.871490 0.704498 0.269012
0.886017 0.704376 0.266663
0.900482 0.704376 0.264313
0.144409 0.662811 0.410248
0.156219 0.665924 0.409515
0.168457 0.669098 0.408844
0.181091 0.672272 0.407898
0.193848 0.675385 0.406158
0.207123 0.678528 0.404388
0.220795 0.681702 0.402466
0.234924 0.684814 0.400299
0.249512 0.687958 0.397980
0.264587 0.691010 0.395447
0.280151 0.694031 0.392731
0.296143 0.696838 0.389740
0.312531 0.699707 0.386688
0.330200 0.702698 0.383453
0.348541 0.705719 0.380157
0.366547 0.708557 0.376953
0.391449 0.712463 0.372314
0.447876 0.720825 0.361328
0.521942 0.730316 0.346893
0.590302 0.738220 0.333405
0.648102 0.743988 0.321777
0.694397 0.746704 0.312897
0.730591 0.746338 0.306793
0.755951 0.740967 0.301239
0.779205 0.737549 0.296600
0.800964 0.735046 0.292206
0.821320 0.734039 0.289001
0.840485 0.733490 0.286102
0.858917 0.732971 0.283264
0.876129 0.732300 0.280426
0.891235 0.731903 0.277924
0.905945 0.731934 0.275452
0.146912 0.685150 0.416199
0.159058 0.688171 0.415680
0.171631 0.691254 0.415161
0.184570 0.694336 0.414581
0.197998 0.697510 0.413971
0.211884 0.700684 0.413330
0.226166 0.703827 0.412384
0.240662 0.706909 0.410583
0.255554 0.709961 0.408356
0.270844 0.712952 0.405701
0.286652 0.715973 0.402893
0.303070 0.718811 0.399841
0.321289 0.721771 0.396393
0.339996 0.724854 0.392914
0.358521 0.727966 0.389648
0.376709 0.730865 0.386505
0.394989 0.733582 0.383240
0.432007 0.739319 0.376282
0.502197 0.749084 0.362793
0.572083 0.757904 0.349213
0.631989 0.764618 0.337494
0.681427 0.769623 0.327728
0.721893 0.771759 0.320343
0.754700 0.771698 0.314880
0.779083 0.767059 0.309540
0.801239 0.763763 0.305023
0.822418 0.761322 0.300629
0.841949 0.760071 0.297363
0.860870 0.759552 0.294464
0.879028 0.759003 0.291595
0.895111 0.758514 0.288818
0.910370 0.758331 0.286224
0.149658 0.706512 0.421753
0.161957 0.709503 0.421234
0.174683 0.712555 0.420624
0.187836 0.715576 0.419983
0.201508 0.718658 0.419312
0.215576 0.721710 0.418518
0.230225 0.724762 0.417694
0.245331 0.727783 0.416809
0.260956 0.730865 0.415833
0.277008 0.733917 0.414490
0.294220 0.736938 0.412048
0.312744 0.739929 0.408661
0.331543 0.742920 0.405060
0.350159 0.745972 0.401703
0.368896 0.749023 0.398407
0.388000 0.752075 0.395233
