assets/luts/ANDP-Film-Fading.CUBE
#Created by: Adobe Photoshop Export Color Lookup Plugin
#Copyright: (C) Copyright 2022 Thomas Andreas Parpoulas
TITLE "ANDP-Film-Fading"
#LUT size
LUT_3D_SIZE 8
#data domain
DOMAIN_MIN 0.0 0.0 0.0
DOMAIN_MAX 1.0 1.0 1.0
#LUT data points
0.055359 0.055359 0.055359
0.180420 0.055359 0.055359
0.305481 0.055359 0.055359
0.430542 0.055359 0.055359
0.555634 0.055359 0.055359
0.680695 0.055359 0.055359
0.805725 0.055359 0.055359
0.930786 0.055359 0.055359
0.055359 0.180420 0.055359
0.180420 0.180420 0.055359
0.305481 0.180420 0.055359
0.430542 0.180420 0.055359
0.555634 0.180420 0.055359
0.680695 0.180420 0.055359
0.805725 0.180420 0.055359
0.930786 0.180420 0.055359
0.055359 0.305481 0.055359
0.180420 0.305481 0.055359
0.305481 0.305481 0.055359
0.430542 0.305481 0.055359
0.555634 0.305481 0.055359
0.680695 0.305481 0.055359
0.805725 0.305481 0.055359
0.930786 0.305481 0.055359
0.055359 0.430542 0.055359
0.180420 0.430542 0.055359
0.305481 0.430542 0.055359
0.430542 0.430542 0.055359
0.555634 0.430542 0.055359
0.680695 0.430542 0.055359
0.805725 0.430542 0.055359
0.930786 0.430542 0.055359
0.055359 0.555634 0.055359
0.180420 0.555634 0.055359
0.305481 0.555634 0.055359
0.430542 0.555634 0.055359
0.555634 0.555634 0.055359
0.680695 0.555634 0.055359
0.805725 0.555634 0.055359
0.930786 0.555634 0.055359
0.055359 0.680695 0.055359
0.180420 0.680695 0.055359
0.305481 0.680695 0.055359
0.430542 0.680695 0.055359
0.555634 0.680695 0.055359
0.680695 0.680695 0.055359
0.805725 0.680695 0.055359
0.930786 0.680695 0.055359
0.055359 0.805725 0.055359
0.180420 0.805725 0.055359
0.305481 0.805725 0.055359
0.430542 0.805725 0.055359
0.555634 0.805725 0.055359
0.680695 0.805725 0.055359
0.805725 0.805725 0.055359
0.930786 0.805725 0.055359
0.055359 0.930786 0.055359
0.180420 0.930786 0.055359
0.305481 0.930786 0.055359
0.430542 0.930786 0.055359
0.555634 0.930786 0.055359
0.680695 0.930786 0.055359
0.805725 0.930786 0.055359
0.930786 0.930786 0.055359
0.055359 0.055359 0.180420
0.180420 0.055359 0.180420
0.305481 0.055359 0.180420
0.430542 0.055359 0.180420
0.555634 0.055359 0.180420
0.680695 0.055359 0.180420
0.805725 0.055359 0.180420
0.930786 0.055359 0.180420
0.055359 0.180420 0.180420
0.180420 0.180420 0.180420
0.305481 0.180420 0.180420
0.430542 0.180420 0.180420
0.555634 0.180420 0.180420
0.680695 0.180420 0.180420
0.805725 0.180420 0.180420
0.930786 0.180420 0.180420
0.055359 0.305481 0.180420
0.180420 0.305481 0.180420
0.305481 0.305481 0.180420
0.430542 0.305481 0.180420
0.555634 0.305481 0.180420
0.680695 0.305481 0.180420
0.805725 0.305481 0.180420
0.930786 0.305481 0.180420
0.055359 0.430542 0.180420
0.180420 0.430542 0.180420
0.305481 0.430542 0.180420
0.430542 0.430542 0.180420
0.555634 0.430542 0.180420
0.680695 0.430542 0.180420
0.805725 0.430542 0.180420
0.930786 0.430542 0.180420
0.055359 0.555634 0.180420
0.180420 0.555634 0.180420
0.305481 0.555634 0.180420
0.430542 0.555634 0.180420
0.555634 0.555634 0.180420
0.680695 0.555634 0.180420
0.805725 0.555634 0.180420
0.930786 0.555634 0.180420
0.055359 0.680695 0.180420
0.180420 0.680695 0.180420
0.305481 0.680695 0.180420
0.430542 0.680695 0.180420
0.555634 0.680695 0.180420
0.680695 0.680695 0.180420
0.805725 0.680695 0.180420
0.930786 0.680695 0.180420
0.055359 0.805725 0.180420
0.180420 0.805725 0.180420
0.305481 0.805725 0.180420
0.430542 0.805725 0.180420
0.555634 0.805725 0.180420
0.680695 0.805725 0.180420
0.805725 0.805725 0.180420
0.930786 0.805725 0.180420
0.055359 0.930786 0.180420
0.180420 0.930786 0.180420
0.305481 0.930786 0.180420
0.430542 0.930786 0.180420
0.555634 0.930786 0.180420
0.680695 0.930786 0.180420
0.805725 0.930786 0.180420
0.930786 0.930786 0.180420
0.055359 0.055359 0.305481
0.180420 0.055359 0.305481
0.305481 0.055359 0.305481
0.430542 0.055359 0.305481
0.555634 0.055359 0.305481
0.680695 0.055359 0.305481
0.805725 0.055359 0.305481
0.930786 0.055359 0.305481
0.055359 0.180420 0.305481
0.180420 0.180420 0.305481
0.305481 0.180420 0.305481
0.430542 0.180420 0.305481
0.555634 0.180420 0.305481
0.680695 0.180420 0.305481
0.805725 0.180420 0.305481
0.930786 0.180420 0.305481
0.055359 0.305481 0.305481
0.180420 0.305481 0.305481
0.305481 0.305481 0.305481
0.430542 0.305481 0.305481
0.555634 0.305481 0.305481
0.680695 0.305481 0.305481
0.805725 0.305481 0.305481
0.930786 0.305481 0.305481
0.055359 0.430542 0.305481
0.180420 0.430542 0.305481
0.305481 0.430542 0.305481
0.430542 0.430542 0.305481
0.555634 0.430542 0.305481
0.680695 0.430542 0.305481
0.805725 0.430542 0.305481
0.930786 0.430542 0.305481
0.055359 0.555634 0.305481
0.180420 0.555634 0.305481
0.305481 0.555634 0.305481
0.430542 0.555634 0.305481
0.555634 0.555634 0.305481
0.680695 0.555634 0.305481
0.805725 0.555634 0.305481
0.930786 0.555634 0.305481
0.055359 0.680695 0.305481
0.180420 0.680695 0.305481
0.305481 0.680695 0.305481
0.430542 0.680695 0.305481
0.555634 0.680695 0.305481
0.680695 0.680695 0.305481
0.805725 0.680695 0.305481
0.930786 0.680695 0.305481
0.055359 0.805725 0.305481
0.180420 0.805725 0.305481
0.305481 0.805725 0.305481
0.430542 0.805725 0.305481
0.555634 0.805725 0.305481
0.680695 0.805725 0.305481
0.805725 0.805725 0.305481
0.930786 0.805725 0.305481
0.055359 0.930786 0.305481
0.180420 0.930786 0.305481
0.305481 0.930786 0.305481
0.430542 0.930786 0.305481
0.555634 0.930786 0.305481
0.680695 0.930786 0.305481
0.805725 0.930786 0.305481
0.930786 0.930786 0.305481
0.055359 0.055359 0.430542
0.180420 0.055359 0.430542
0.305481 0.055359 0.430542
0.430542 0.055359 0.430542
0.555634 0.055359 0.430542
0.680695 0.055359 0.430542
0.805725 0.055359 0.430542
0.930786 0.055359 0.430542
0.055359 0.180420 0.430542
0.180420 0.180420 0.430542
0.305481 0.180420 0.430542
0.430542 0.180420 0.430542
0.555634 0.180420 0.430542
0.680695 0.180420 0.430542
0.805725 0.180420 0.430542
0.930786 0.180420 0.430542
0.055359 0.305481 0.430542
0.180420 0.305481 0.430542
0.305481 0.305481 0.430542
0.430542 0.305481 0.430542
0.555634 0.305481 0.430542
0.680695 0.305481 0.430542
0.805725 0.305481 0.430542
0.930786 0.305481 0.430542
0.055359 0.430542 0.430542
0.180420 0.430542 0.430542
0.305481 0.430542 0.430542
0.430542 0.430542 0.430542
0.555634 0.430542 0.430542
0.680695 0.430542 0.430542
0.805725 0.430542 0.430542
0.930786 0.430542 0.430542
0.055359 0.555634 0.430542
0.180420 0.555634 0.430542
0.305481 0.555634 0.430542
0.430542 0.555634 0.430542
0.555634 0.555634 0.430542
0.680695 0.555634 0.430542
0.805725 0.555634 0.430542
0.930786 0.555634 0.430542
0.055359 0.680695 0.430542
0.180420 0.680695 0.430542
0.305481 0.680695 0.430542
0.430542 0.680695 0.430542
0.555634 0.680695 0.430542
0.680695 0.680695 0.430542
0.805725 0.680695 0.430542
0.930786 0.680695 0.430542
0.055359 0.805725 0.430542
0.180420 0.805725 0.430542
0.305481 0.805725 0.430542
0.430542 0.805725 0.430542
0.555634 0.805725 0.430542
0.680695 0.805725 0.430542
0.805725 0.805725 0.430542
0.930786 0.805725 0.430542
0.055359 0.930786 0.430542
0.180420 0.930786 0.430542
0.305481 0.930786 0.430542
0.430542 0.930786 0.430542
0.555634 0.930786 0.430542
0.680695 0.930786 0.430542
0.805725 0.930786 0.430542
0.930786 0.930786 0.430542
0.055359 0.055359 0.555634
0.180420 0.055359 0.555634
0.305481 0.055359 0.555634
0.430542 0.055359 0.555634
0.555634 0.055359 0.555634
0.680695 0.055359 0.555634
0.805725 0.055359 0.555634
0.930786 0.055359 0.555634
0.055359 0.180420 0.555634
0.180420 0.180420 0.555634
0.305481 0.180420 0.555634
0.430542 0.180420 0.555634
0.555634 0.180420 0.555634
0.680695 0.180420 0.555634
0.805725 0.180420 0.555634
0.930786 0.180420 0.555634
0.055359 0.305481 0.555634
0.180420 0.305481 0.555634
0.305481 0.305481 0.555634
0.430542 0.305481 0.555634
0.555634 0.305481 0.555634
0.680695 0.305481 0.555634
0.805725 0.305481 0.555634
0.930786 0.305481 0.555634
0.055359 0.430542 0.555634
0.180420 0.430542 0.555634
0.305481 0.430542 0.555634
0.430542 0.430542 0.555634
0.555634 0.430542 0.555634
0.680695 0.430542 0.555634
0.805725 0.430542 0.555634
0.930786 0.430542 0.555634
0.055359 0.555634 0.555634
0.180420 0.555634 0.555634
0.305481 0.555634 0.555634
0.430542 0.555634 0.555634
0.555634 0.555634 0.555634
0.680695 0.555634 0.555634
0.805725 0.555634 0.555634
0.930786 0.555634 0.555634
0.055359 0.680695 0.555634
0.180420 0.680695 0.555634
0.305481 0.680695 0.555634
0.430542 0.680695 0.555634
0.555634 0.680695 0.555634
0.680695 0.680695 0.555634
0.805725 0.680695 0.555634
0.930786 0.680695 0.555634
0.055359 0.805725 0.555634
0.180420 0.805725 0.555634
0.305481 0.805725 0.555634
0.430542 0.805725 0.555634
0.555634 0.805725 0.555634
0.680695 0.805725 0.555634
0.805725 0.805725 0.555634
0.930786 0.805725 0.555634
0.055359 0.930786 0.555634
0.180420 0.930786 0.555634
0.305481 0.930786 0.555634
0.430542 0.930786 0.555634
0.555634 0.930786 0.555634
0.680695 0.930786 0.555634
0.805725 0.930786 0.555634
0.930786 0.930786 0.555634
0.055359 0.055359 0.680695
0.180420 0.055359 0.680695
0.305481 0.055359 0.680695
0.430542 0.055359 0.680695
0.555634 0.055359 0.680695
0.680695 0.055359 0.680695
0.805725 0.055359 0.680695
0.930786 0.055359 0.680695
0.055359 0.180420 0.680695
0.180420 0.180420 0.680695
0.305481 0.180420 0.680695
0.430542 0.180420 0.680695
0.555634 0.180420 0.680695
0.680695 0.180420 0.680695
0.805725 0.180420 0.680695
0.930786 0.180420 0.680695
0.055359 0.305481 0.680695
0.180420 0.305481 0.680695
0.305481 0.305481 0.680695
0.430542 0.305481 0.680695
0.555634 0.305481 0.680695
0.680695 0.305481 0.680695
0.805725 0.305481 0.680695
0.930786 0.305481 0.680695
0.055359 0.430542 0.680695
0.180420 0.430542 0.680695
0.305481 0.430542 0.680695
0.430542 0.430542 0.680695
0.555634 0.430542 0.680695
0.680695 0.430542 0.680695
0.805725 0.430542 0.680695
0.930786 0.430542 0.680695
0.055359 0.555634 0.680695
0.180420 0.555634 0.680695
0.305481 0.555634 0.680695
0.430542 0.555634 0.680695
0.555634 0.555634 0.680695
0.680695 0.555634 0.680695
0.805725 0.555634 0.680695
0.930786 0.555634 0.680695
0.055359 0.680695 0.680695
0.180420 0.680695 0.680695
0.305481 0.680695 0.680695
0.430542 0.680695 0.680695
0.555634 0.680695 0.680695
0.680695 0.680695 0.680695
0.805725 0.680695 0.680695
0.930786 0.680695 0.680695
0.055359 0.805725 0.680695
0.180420 0.805725 0.680695
0.305481 0.805725 0.680695
0.430542 0.805725 0.680695
0.555634 0.805725 0.680695
0.680695 0.805725 0.680695
0.805725 0.805725 0.680695
0.930786 0.805725 0.680695
0.055359 0.930786 0.680695
0.180420 0.930786 0.680695
0.305481 0.930786 0.680695
0.430542 0.930786 0.680695
0.555634 0.930786 0.680695
0.680695 0.930786 0.680695
0.805725 0.930786 0.680695
0.930786 0.930786 0.680695
0.055359 0.055359 0.805725
0.180420 0.055359 0.805725
0.305481 0.055359 0.805725
0.430542 0.055359 0.805725
0.555634 0.055359 0.805725
0.680695 0.055359 0.805725
0.805725 0.055359 0.805725
0.930786 0.055359 0.805725
0.055359 0.180420 0.805725
0.180420 0.180420 0.805725
0.305481 0.180420 0.805725
0.430542 0.180420 0.805725
0.555634 0.180420 0.805725
0.680695 0.180420 0.805725
0.805725 0.180420 0.805725
0.930786 0.180420 0.805725
0.055359 0.305481 0.805725
0.180420 0.305481 0.805725
0.305481 0.305481 0.805725
0.430542 0.305481 0.805725
0.555634 0.305481 0.805725
0.680695 0.305481 0.805725
0.805725 0.305481 0.805725
0.930786 0.305481 0.805725
0.055359 0.430542 0.805725
0.180420 0.430542 0.805725
0.305481 0.430542 0.805725
0.430542 0.430542 0.805725
0.555634 0.430542 0.805725
0.680695 0.430542 0.805725
0.805725 0.430542 0.805725
0.930786 0.430542 0.805725
0.055359 0.555634 0.805725
0.180420 0.555634 0.805725
0.305481 0.555634 0.805725
0.430542 0.555634 0.805725
0.555634 0.555634 0.805725
0.680695 0.555634 0.805725
0.805725 0.555634 0.805725
0.930786 0.555634 0.805725
0.055359 0.680695 0.805725
0.180420 0.680695 0.805725
0.305481 0.680695 0.805725
0.430542 0.680695 0.805725
0.555634 0.680695 0.805725
0.680695 0.680695 0.805725
0.805725 0.680695 0.805725
0.930786 0.680695 0.805725
0.055359 0.805725 0.805725
0.180420 0.805725 0.805725
0.305481 0.805725 0.805725
0.430542 0.805725 0.805725
0.555634 0.805725 0.805725
0.680695 0.805725 0.805725
0.805725 0.805725 0.805725
0.930786 0.805725 0.805725
0.055359 0.930786 0.805725
0.180420 0.930786 0.805725
0.305481 0.930786 0.805725
0.430542 0.930786 0.805725
0.555634 0.930786 0.805725
0.680695 0.930786 0.805725
0.805725 0.930786 0.805725
0.930786 0.930786 0.805725
0.055359 0.055359 0.930786
0.180420 0.055359 0.930786
0.305481 0.055359 0.930786
0.430542 0.055359 0.930786
0.555634 0.055359 0.930786
0.680695 0.055359 0.930786
0.805725 0.055359 0.930786
0.930786 0.055359 0.930786
0.055359 0.180420 0.930786
0.180420 0.180420 0.930786
0.305481 0.180420 0.930786
0.430542 0.180420 0.930786
0.555634 0.180420 0.930786
0.680695 0.180420 0.930786
0.805725 0.180420 0.930786
0.930786 0.180420 0.930786
0.055359 0.305481 0.930786
0.180420 0.305481 0.930786
0.305481 0.305481 0.930786
0.430542 0.305481 0.930786
0.555634 0.305481 0.930786
0.680695 0.305481 0.930786
0.805725 0.305481 0.930786
0.930786 0.305481 0.930786
0.055359 0.430542 0.930786
0.180420 0.430542 0.930786
0.305481 0.430542 0.930786
0.430542 0.430542 0.930786
0.555634 0.430542 0.930786
0.680695 0.430542 0.930786
0.805725 0.430542 0.930786
0.930786 0.430542 0.930786
0.055359 0.555634 0.930786
0.180420 0.555634 0.930786
0.305481 0.555634 0.930786
0.430542 0.555634 0.930786
0.555634 0.555634 0.930786
0.680695 0.555634 0.930786
0.805725 0.555634 0.930786
0.930786 0.555634 0.930786
0.055359 0.680695 0.930786
0.180420 0.680695 0.930786
0.305481 0.680695 0.930786
0.430542 0.680695 0.930786
0.555634 0.680695 0.930786
0.680695 0.680695 0.930786
0.805725 0.680695 0.930786
0.930786 0.680695 0.930786
0.055359 0.805725 0.930786
0.180420 0.805725 0.930786
0.305481 0.805725 0.930786
0.430542 0.805725 0.930786
0.555634 0.805725 0.930786
0.680695 0.805725 0.930786
0.805725 0.805725 0.930786
0.930786 0.805725 0.930786
0.055359 0.930786 0.930786
0.180420 0.930786 0.930786
0.305481 0.930786 0.930786
0.430542 0.930786 0.930786
0.555634 0.930786 0.930786
0.680695 0.930786 0.930786
0.805725 0.930786 0.930786
0.930786 0.930786 0.930786
