assets/luts/ANDP-Film-Fading.CUBE
#Created by: Adobe Photoshop Export Color Lookup Plugin
#Copyright: (C) Copyright 2022 Thomas Andreas Parpoulas
TITLE "ANDP-Film-Fading"
#LUT size
LUT_3D_SIZE 64
#data domain
DOMAIN_MIN 0.0 0.0 0.0
DOMAIN_MAX 1.0 1.0 1.0
#LUT data points
0.055359 0.055359 0.055359
0.069244 0.055359 0.055359
0.083160 0.055359 0.055359
0.097046 0.055359 0.055359
0.110962 0.055359 0.055359
0.124847 0.055359 0.055359
0.138733 0.055359 0.055359
0.152649 0.055359 0.055359
0.166534 0.055359 0.055359
0.180420 0.055359 0.055359
0.194305 0.055359 0.055359
0.208221 0.055359 0.055359
0.222137 0.055359 0.055359
0.236023 0.055359 0.055359
0.249908 0.055359 0.055359
0.263794 0.055359 0.055359
0.277710 0.055359 0.055359
0.291595 0.055359 0.055359
0.305481 0.055359 0.055359
0.319397 0.055359 0.055359
0.333282 0.055359 0.055359
0.347198 0.055359 0.055359
0.361084 0.055359 0.055359
0.374969 0.055359 0.055359
0.388855 0.055359 0.055359
0.402740 0.055359 0.055359
0.416626 0.055359 0.055359
0.430542 0.055359 0.055359
0.444458 0.055359 0.055359
0.458344 0.055359 0.055359
0.472260 0.055359 0.055359
0.486145 0.055359 0.055359
0.500031 0.055359 0.055359
0.513916 0.055359 0.055359
0.527802 0.055359 0.055359
0.541687 0.055359 0.055359
0.555634 0.055359 0.055359
0.569519 0.055359 0.055359
0.583405 0.055359 0.055359
0.597290 0.055359 0.055359
0.611176 0.055359 0.055359
0.625092 0.055359 0.055359
0.638977 0.055359 0.055359
0.652863 0.055359 0.055359
0.666809 0.055359 0.055359
0.680695 0.055359 0.055359
0.694580 0.055359 0.055359
0.708466 0.055359 0.055359
0.722351 0.055359 0.055359
0.736237 0.055359 0.055359
0.750153 0.055359 0.055359
0.764038 0.055359 0.055359
0.777954 0.055359 0.055359
0.791840 0.055359 0.055359
0.805725 0.055359 0.055359
0.819641 0.055359 0.055359
0.833527 0.055359 0.055359
0.847412 0.055359 0.055359
0.861328 0.055359 0.055359
0.875183 0.055359 0.055359
0.889130 0.055359 0.055359
0.903015 0.055359 0.055359
0.916901 0.055359 0.055359
0.930786 0.055359 0.055359
0.055359 0.069244 0.055359
0.069244 0.069244 0.055359
0.083160 0.069244 0.055359
0.097046 0.069244 0.055359
0.110962 0.069244 0.055359
0.124847 0.069244 0.055359
0.138733 0.069244 0.055359
0.152649 0.069244 0.055359
0.166534 0.069244 0.055359
0.180420 0.069244 0.055359
0.194305 0.069244 0.055359
0.208221 0.069244 0.055359
0.222137 0.069244 0.055359
0.236023 0.069244 0.055359
0.249908 0.069244 0.055359
0.263794 0.069244 0.055359
0.277710 0.069244 0.055359
0.291595 0.069244 0.055359
0.305481 0.069244 0.055359
0.319397 0.069244 0.055359
0.333282 0.069244 0.055359
0.347198 0.069244 0.055359
0.361084 0.069244 0.055359
0.374969 0.069244 0.055359
0.388855 0.069244 0.055359
0.402740 0.069244 0.055359
0.416626 0.069244 0.055359
0.430542 0.069244 0.055359
0.444458 0.069244 0.055359
0.458344 0.069244 0.055359
0.472260 0.069244 0.055359
0.486145 0.069244 0.055359
0.500031 0.069244 0.055359
0.513916 0.069244 0.055359
0.527802 0.069244 0.055359
0.541687 0.069244 0.055359
0.555634 0.069244 0.055359
0.569519 0.069244 0.055359
0.583405 0.069244 0.055359
0.597290 0.069244 0.055359
0.611176 0.069244 0.055359
0.625092 0.069244 0.055359
0.638977 0.069244 0.055359
0.652863 0.069244 0.055359
0.666809 0.069244 0.055359
0.680695 0.069244 0.055359
0.694580 0.069244 0.055359
0.708466 0.069244 0.055359
0.722351 0.069244 0.055359
0.736237 0.069244 0.055359
0.750153 0.069244 0.055359
0.764038 0.069244 0.055359
0.777954 0.069244 0.055359
0.791840 0.069244 0.055359
0.805725 0.069244 0.055359
0.819641 0.069244 0.055359
0.833527 0.069244 0.055359
0.847412 0.069244 0.055359
0.861328 0.069244 0.055359
0.875183 0.069244 0.055359
0.889130 0.069244 0.055359
0.903015 0.069244 0.055359
0.916901 0.069244 0.055359
0.930786 0.069244 0.055359
0.055359 0.083160 0.055359
0.069244 0.083160 0.055359
0.083160 0.083160 0.055359
0.097046 0.083160 0.055359
0.110962 0.083160 0.055359
0.124847 0.083160 0.055359
0.138733 0.083160 0.055359
0.152649 0.083160 0.055359
0.166534 0.083160 0.055359
0.180420 0.083160 0.055359
0.194305 0.083160 0.055359
0.208221 0.083160 0.055359
0.222137 0.083160 0.055359
0.236023 0.083160 0.055359
0.249908 0.083160 0.055359
0.263794 0.083160 0.055359
0.277710 0.083160 0.055359
0.291595 0.083160 0.055359
0.305481 0.083160 0.055359
0.319397 0.083160 0.055359
0.333282 0.083160 0.055359
0.347198 0.083160 0.055359
0.361084 0.083160 0.055359
0.374969 0.083160 0.055359
0.388855 0.083160 0.055359
0.402740 0.083160 0.055359
0.416626 0.083160 0.055359
0.430542 0.083160 0.055359
0.444458 0.083160 0.055359
0.458344 0.083160 0.055359
0.472260 0.083160 0.055359
0.486145 0.083160 0.055359
0.500031 0.083160 0.055359
0.513916 0.083160 0.055359
0.527802 0.083160 0.055359
0.541687 0.083160 0.055359
0.555634 0.083160 0.055359
0.569519 0.083160 0.055359
0.583405 0.083160 0.055359
0.597290 0.083160 0.055359
0.611176 0.083160 0.055359
0.625092 0.083160 0.055359
0.638977 0.083160 0.055359
0.652863 0.083160 0.055359
0.666809 0.083160 0.055359
0.680695 0.083160 0.055359
0.694580 0.083160 0.055359
0.708466 0.083160 0.055359
0.722351 0.083160 0.055359
0.736237 0.083160 0.055359
0.750153 0.083160 0.055359
0.764038 0.083160 0.055359
0.777954 0.083160 0.055359
0.791840 0.083160 0.055359
0.805725 0.083160 0.055359
0.819641 0.083160 0.055359
0.833527 0.083160 0.055359
0.847412 0.083160 0.055359
0.861328 0.083160 0.055359
0.875183 0.083160 0.055359
0.889130 0.083160 0.055359
0.903015 0.083160 0.055359
0.916901 0.083160 0.055359
0.930786 0.083160 0.055359
0.055359 0.097046 0.055359
0.069244 0.097046 0.055359
0.083160 0.097046 0.055359
0.097046 0.097046 0.055359
0.110962 0.097046 0.055359
0.124847 0.097046 0.055359
0.138733 0.097046 0.055359
0.152649 0.097046 0.055359
0.166534 0.097046 0.055359
0.180420 0.097046 0.055359
0.194305 0.097046 0.055359
0.208221 0.097046 0.055359
0.222137 0.097046 0.055359
0.236023 0.097046 0.055359
0.249908 0.097046 0.055359
0.263794 0.097046 0.055359
0.277710 0.097046 0.055359
0.291595 0.097046 0.055359
0.305481 0.097046 0.055359
0.319397 0.097046 0.055359
0.333282 0.097046 0.055359
0.347198 0.097046 0.055359
0.361084 0.097046 0.055359
0.374969 0.097046 0.055359
0.388855 0.097046 0.055359
0.402740 0.097046 0.055359
0.416626 0.097046 0.055359
0.430542 0.097046 0.055359
0.444458 0.097046 0.055359
0.458344 0.097046 0.055359
0.472260 0.097046 0.055359
0.486145 0.097046 0.055359
0.500031 0.097046 0.055359
0.513916 0.097046 0.055359
0.527802 0.097046 0.055359
0.541687 0.097046 0.055359
0.555634 0.097046 0.055359
0.569519 0.097046 0.055359
0.583405 0.097046 0.055359
0.597290 0.097046 0.055359
0.611176 0.097046 0.055359
0.625092 0.097046 0.055359
0.638977 0.097046 0.055359
0.652863 0.097046 0.055359
0.666809 0.097046 0.055359
0.680695 0.097046 0.055359
0.694580 0.097046 0.055359
0.708466 0.097046 0.055359
0.722351 0.097046 0.055359
0.736237 0.097046 0.055359
0.750153 0.097046 0.055359
0.764038 0.097046 0.055359
0.777954 0.097046 0.055359
0.791840 0.097046 0.055359
0.805725 0.097046 0.055359
0.819641 0.097046 0.055359
0.833527 0.097046 0.055359
0.847412 0.097046 0.055359
0.861328 0.097046 0.055359
0.875183 0.097046 0.055359
0.889130 0.097046 0.055359
0.903015 0.097046 0.055359
0.916901 0.097046 0.055359
0.930786 0.097046 0.055359
0.055359 0.110962 0.055359
0.069244 0.110962 0.055359
0.083160 0.110962 0.055359
0.097046 0.110962 0.055359
0.110962 0.110962 0.055359
0.124847 0.110962 0.055359
0.138733 0.110962 0.055359
0.152649 0.110962 0.055359
0.166534 0.110962 0.055359
0.180420 0.110962 0.055359
0.194305 0.110962 0.055359
0.208221 0.110962 0.055359
0.222137 0.110962 0.055359
0.236023 0.110962 0.055359
0.249908 0.110962 0.055359
0.263794 0.110962 0.055359
0.277710 0.110962 0.055359
0.291595 0.110962 0.055359
0.305481 0.110962 0.055359
0.319397 0.110962 0.055359
0.333282 0.110962 0.055359
0.347198 0.110962 0.055359
0.361084 0.110962 0.055359
0.374969 0.110962 0.055359
0.388855 0.110962 0.055359
0.402740 0.110962 0.055359
0.416626 0.110962 0.055359
0.430542 0.110962 0.055359
0.444458 0.110962 0.055359
0.458344 0.110962 0.055359
0.472260 0.110962 0.055359
0.486145 0.110962 0.055359
0.500031 0.110962 0.055359
0.513916 0.110962 0.055359
0.527802 0.110962 0.055359
0.541687 0.110962 0.055359
0.555634 0.110962 0.055359
0.569519 0.110962 0.055359
0.583405 0.110962 0.055359
0.597290 0.110962 0.055359
0.611176 0.110962 0.055359
0.625092 0.110962 0.055359
0.638977 0.110962 0.055359
0.652863 0.110962 0.055359
0.666809 0.110962 0.055359
0.680695 0.110962 0.055359
0.694580 0.110962 0.055359
0.708466 0.110962 0.055359
0.722351 0.110962 0.055359
0.736237 0.110962 0.055359
0.750153 0.110962 0.055359
0.764038 0.110962 0.055359
0.777954 0.110962 0.055359
0.791840 0.110962 0.055359
0.805725 0.110962 0.055359
0.819641 0.110962 0.055359
0.833527 0.110962 0.055359
0.847412 0.110962 0.055359
0.861328 0.110962 0.055359
0.875183 0.110962 0.055359
0.889130 0.110962 0.055359
0.903015 0.110962 0.055359
0.916901 0.110962 0.055359
0.930786 0.110962 0.055359
0.055359 0.124847 0.055359
0.069244 0.124847 0.055359
0.083160 0.124847 0.055359
0.097046 0.124847 0.055359
0.110962 0.124847 0.055359
0.124847 0.124847 0.055359
0.138733 0.124847 0.055359
0.152649 0.124847 0.055359
0.166534 0.124847 0.055359
0.180420 0.124847 0.055359
0.194305 0.124847 0.055359
0.208221 0.124847 0.055359
0.222137 0.124847 0.055359
0.236023 0.124847 0.055359
0.249908 0.124847 0.055359
0.263794 0.124847 0.055359
0.277710 0.124847 0.055359
0.291595 0.124847 0.055359
0.305481 0.124847 0.055359
0.319397 0.124847 0.055359
0.333282 0.124847 0.055359
0.347198 0.124847 0.055359
0.361084 0.124847 0.055359
0.374969 0.124847 0.055359
0.388855 0.124847 0.055359
0.402740 0.124847 0.055359
0.416626 0.124847 0.055359
0.430542 0.124847 0.055359
0.444458 0.124847 0.055359
0.458344 0.124847 0.055359
0.472260 0.124847 0.055359
0.486145 0.124847 0.055359
0.500031 0.124847 0.055359
0.513916 0.124847 0.055359
0.527802 0.124847 0.055359
0.541687 0.124847 0.055359
0.555634 0.124847 0.055359
0.569519 0.124847 0.055359
0.583405 0.124847 0.055359
0.597290 0.124847 0.055359
0.611176 0.124847 0.055359
0.625092 0.124847 0.055359
0.638977 0.124847 0.055359
0.652863 0.124847 0.055359
0.666809 0.124847 0.055359
0.680695 0.124847 0.055359
0.694580 0.124847 0.055359
0.708466 0.124847 0.055359
0.722351 0.124847 0.055359
0.736237 0.124847 0.055359
0.750153 0.124847 0.055359
0.764038 0.124847 0.055359
0.777954 0.124847 0.055359
0.791840 0.124847 0.055359
0.805725 0.124847 0.055359
0.819641 0.124847 0.055359
0.833527 0.124847 0.055359
0.847412 0.124847 0.055359
0.861328 0.124847 0.055359
0.875183 0.124847 0.055359
0.889130 0.124847 0.055359
0.903015 0.124847 0.055359
0.916901 0.124847 0.055359
0.930786 0.124847 0.055359
0.055359 0.138733 0.055359
0.069244 0.138733 0.055359
0.083160 0.138733 0.055359
0.097046 0.138733 0.055359
0.110962 0.138733 0.055359
0.124847 0.138733 0.055359
0.138733 0.138733 0.055359
0.152649 0.138733 0.055359
0.166534 0.138733 0.055359
0.180420 0.138733 0.055359
0.194305 0.138733 0.055359
0.208221 0.138733 0.055359
0.222137 0.138733 0.055359
0.236023 0.138733 0.055359
0.249908 0.138733 0.055359
0.263794 0.138733 0.055359
0.277710 0.138733 0.055359
0.291595 0.138733 0.055359
0.305481 0.138733 0.055359
0.319397 0.138733 0.055359
0.333282 0.138733 0.055359
0.347198 0.138733 0.055359
0.361084 0.138733 0.055359
0.374969 0.138733 0.055359
0.388855 0.138733 0.055359
0.402740 0.138733 0.055359
0.416626 0.138733 0.055359
0.430542 0.138733 0.055359
0.444458 0.138733 0.055359
0.458344 0.138733 0.055359
0.472260 0.138733 0.055359
0.486145 0.138733 0.055359
0.500031 0.138733 0.055359
0.513916 0.138733 0.055359
0.527802 0.138733 0.055359
0.541687 0.138733 0.055359
0.555634 0.138733 0.055359
0.569519 0.138733 0.055359
0.583405 0.138733 0.055359
0.597290 0.138733 0.055359
0.611176 0.138733 0.055359
0.625092 0.138733 0.055359
0.638977 0.138733 0.055359
0.652863 0.138733 0.055359
0.666809 0.138733 0.055359
0.680695 0.138733 0.055359
0.694580 0.138733 0.055359
0.708466 0.138733 0.055359
0.722351 0.138733 0.055359
0.736237 0.138733 0.055359
0.750153 0.138733 0.055359
0.764038 0.138733 0.055359
0.777954 0.138733 0.055359
0.791840 0.138733 0.055359
0.805725 0.138733 0.055359
0.819641 0.138733 0.055359
0.833527 0.138733 0.055359
0.847412 0.138733 0.055359
0.861328 0.138733 0.055359
0.875183 0.138733 0.055359
0.889130 0.138733 0.055359
0.903015 0.138733 0.055359
0.916901 0.138733 0.055359
0.930786 0.138733 0.055359
0.055359 0.152649 0.055359
0.069244 0.152649 0.055359
0.083160 0.152649 0.055359
0.097046 0.152649 0.055359
0.110962 0.152649 0.055359
0.124847 0.152649 0.055359
0.138733 0.152649 0.055359
0.152649 0.152649 0.055359
0.166534 0.152649 0.055359
0.180420 0.152649 0.055359
0.194305 0.152649 0.055359
0.208221 0.152649 0.055359
0.222137 0.152649 0.055359
0.236023 0.152649 0.055359
0.249908 0.152649 0.055359
0.263794 0.152649 0.055359
0.277710 0.152649 0.055359
0.291595 0.152649 0.055359
0.305481 0.152649 0.055359
0.319397 0.152649 0.055359
0.333282 0.152649 0.055359
0.347198 0.152649 0.055359
0.361084 0.152649 0.055359
0.374969 0.152649 0.055359
0.388855 0.152649 0.055359
0.402740 0.152649 0.055359
0.416626 0.152649 0.055359
0.430542 0.152649 0.055359
0.444458 0.152649 0.055359
0.458344 0.152649 0.055359
0.472260 0.152649 0.055359
0.486145 0.152649 0.055359
0.500031 0.152649 0.055359
0.513916 0.152649 0.055359
0.527802 0.152649 0.055359
0.541687 0.152649 0.055359
0.555634 0.152649 0.055359
0.569519 0.152649 0.055359
0.583405 0.152649 0.055359
0.597290 0.152649 0.055359
0.611176 0.152649 0.055359
0.625092 0.152649 0.055359
0.638977 0.152649 0.055359
0.652863 0.152649 0.055359
0.666809 0.152649 0.055359
0.680695 0.152649 0.055359
0.694580 0.152649 0.055359
0.708466 0.152649 0.055359
0.722351 0.152649 0.055359
0.736237 0.152649 0.055359
0.750153 0.152649 0.055359
0.764038 0.152649 0.055359
0.777954 0.152649 0.055359
0.791840 0.152649 0.055359
0.805725 0.152649 0.055359
0.819641 0.152649 0.055359
0.833527 0.152649 0.055359
0.847412 0.152649 0.055359
0.861328 0.152649 0.055359
0.875183 0.152649 0.055359
0.889130 0.152649 0.055359
0.903015 0.152649 0.055359
0.916901 0.152649 0.055359
0.930786 0.152649 0.055359
0.055359 0.166534 0.055359
0.069244 0.166534 0.055359
0.083160 0.166534 0.055359
0.097046 0.166534 0.055359
0.110962 0.166534 0.055359
0.124847 0.166534 0.055359
0.138733 0.166534 0.055359
0.152649 0.166534 0.055359
0.166534 0.166534 0.055359
0.180420 0.166534 0.055359
0.194305 0.166534 0.055359
0.208221 0.166534 0.055359
0.222137 0.166534 0.055359
0.236023 0.166534 0.055359
0.249908 0.166534 0.055359
0.263794 0.166534 0.055359
0.277710 0.166534 0.055359
0.291595 0.166534 0.055359
0.305481 0.166534 0.055359
0.319397 0.166534 0.055359
0.333282 0.166534 0.055359
0.347198 0.166534 0.055359
0.361084 0.166534 0.055359
0.374969 0.166534 0.055359
0.388855 0.166534 0.055359
0.402740 0.166534 0.055359
0.416626 0.166534 0.055359
0.430542 0.166534 0.055359
0.444458 0.166534 0.055359
0.458344 0.166534 0.055359
0.472260 0.166534 0.055359
0.486145 0.166534 0.055359
0.500031 0.166534 0.055359
0.513916 0.166534 0.055359
0.527802 0.166534 0.055359
0.541687 0.166534 0.055359
0.555634 0.166534 0.055359
0.569519 0.166534 0.055359
0.583405 0.166534 0.055359
0.597290 0.166534 0.055359
0.611176 0.166534 0.055359
0.625092 0.166534 0.055359
0.638977 0.166534 0.055359
0.652863 0.166534 0.055359
0.666809 0.166534 0.055359
0.680695 0.166534 0.055359
0.694580 0.166534 0.055359
0.708466 0.166534 0.055359
0.722351 0.166534 0.055359
0.736237 0.166534 0.055359
0.750153 0.166534 0.055359
0.764038 0.166534 0.055359
0.777954 0.166534 0.055359
0.791840 0.166534 0.055359
0.805725 0.166534 0.055359
0.819641 0.166534 0.055359
0.833527 0.166534 0.055359
0.847412 0.166534 0.055359
0.861328 0.166534 0.055359
0.875183 0.166534 0.055359
0.889130 0.166534 0.055359
0.903015 0.166534 0.055359
0.916901 0.166534 0.055359
0.930786 0.166534 0.055359
0.055359 0.180420 0.055359
0.069244 0.180420 0.055359
0.083160 0.180420 0.055359
0.097046 0.180420 0.055359
0.110962 0.180420 0.055359
0.124847 0.180420 0.055359
0.138733 0.180420 0.055359
0.152649 0.180420 0.055359
0.166534 0.180420 0.055359
0.180420 0.180420 0.055359
0.194305 0.180420 0.055359
0.208221 0.180420 0.055359
0.222137 0.180420 0.055359
0.236023 0.180420 0.055359
0.249908 0.180420 0.055359
0.263794 0.180420 0.055359
0.277710 0.180420 0.055359
0.291595 0.180420 0.055359
0.305481 0.180420 0.055359
0.319397 0.180420 0.055359
0.333282 0.180420 0.055359
0.347198 0.180420 0.055359
0.361084 0.180420 0.055359
0.374969 0.180420 0.055359
0.388855 0.180420 0.055359
0.402740 0.180420 0.055359
0.416626 0.180420 0.055359
0.430542 0.180420 0.055359
0.444458 0.180420 0.055359
0.458344 0.180420 0.055359
0.472260 0.180420 0.055359
0.486145 0.180420 0.055359
0.500031 0.180420 0.055359
0.513916 0.180420 0.055359
0.527802 0.180420 0.055359
0.541687 0.180420 0.055359
0.555634 0.180420 0.055359
0.569519 0.180420 0.055359
0.583405 0.180420 0.055359
0.597290 0.180420 0.055359
0.611176 0.180420 0.055359
0.625092 0.180420 0.055359
0.638977 0.180420 0.055359
0.652863 0.180420 0.055359
0.666809 0.180420 0.055359
0.680695 0.180420 0.055359
0.694580 0.180420 0.055359
0.708466 0.180420 0.055359
0.722351 0.180420 0.055359
0.736237 0.180420 0.055359
0.750153 0.180420 0.055359
0.764038 0.180420 0.055359
0.777954 0.180420 0.055359
0.791840 0.180420 0.055359
0.805725 0.180420 0.055359
0.819641 0.180420 0.055359
0.833527 0.180420 0.055359
0.847412 0.180420 0.055359
0.861328 0.180420 0.055359
0.875183 0.180420 0.055359
0.889130 0.180420 0.055359
0.903015 0.180420 0.055359
0.916901 0.180420 0.055359
0.930786 0.180420 0.055359
0.055359 0.194305 0.055359
0.069244 0.194305 0.055359
0.083160 0.194305 0.055359
0.097046 0.194305 0.055359
0.110962 0.194305 0.055359
0.124847 0.194305 0.055359
0.138733 0.194305 0.055359
0.152649 0.194305 0.055359
0.166534 0.194305 0.055359
0.180420 0.194305 0.055359
0.194305 0.194305 0.055359
0.208221 0.194305 0.055359
0.222137 0.194305 0.055359
0.236023 0.194305 0.055359
0.249908 0.194305 0.055359
0.263794 0.194305 0.055359
0.277710 0.194305 0.055359
0.291595 0.194305 0.055359
0.305481 0.194305 0.055359
0.319397 0.194305 0.055359
0.333282 0.194305 0.055359
0.347198 0.194305 0.055359
0.361084 0.194305 0.055359
0.374969 0.194305 0.055359
0.388855 0.194305 0.055359
0.402740 0.194305 0.055359
0.416626 0.194305 0.055359
0.430542 0.194305 0.055359
0.444458 0.194305 0.055359
0.458344 0.194305 0.055359
0.472260 0.194305 0.055359
0.486145 0.194305 0.055359
0.500031 0.194305 0.055359
0.513916 0.194305 0.055359
0.527802 0.194305 0.055359
0.541687 0.194305 0.055359
0.555634 0.194305 0.055359
0.569519 0.194305 0.055359
0.583405 0.194305 0.055359
0.597290 0.194305 0.055359
0.611176 0.194305 0.055359
0.625092 0.194305 0.055359
0.638977 0.194305 0.055359
0.652863 0.194305 0.055359
0.666809 0.194305 0.055359
0.680695 0.194305 0.055359
0.694580 0.194305 0.055359
0.708466 0.194305 0.055359
0.722351 0.194305 0.055359
0.736237 0.194305 0.055359
0.750153 0.194305 0.055359
0.764038 0.194305 0.055359
0.777954 0.194305 0.055359
0.791840 0.194305 0.055359
0.805725 0.194305 0.055359
0.819641 0.194305 0.055359
0.833527 0.194305 0.055359
0.847412 0.194305 0.055359
0.861328 0.194305 0.055359
0.875183 0.194305 0.055359
0.889130 0.194305 0.055359
0.903015 0.194305 0.055359
0.916901 0.194305 0.055359
0.930786 0.194305 0.055359
0.055359 0.208221 0.055359
0.069244 0.208221 0.055359
0.083160 0.208221 0.055359
0.097046 0.208221 0.055359
0.110962 0.208221 0.055359
0.124847 0.208221 0.055359
0.138733 0.208221 0.055359
0.152649 0.208221 0.055359
0.166534 0.208221 0.055359
0.180420 0.208221 0.055359
0.194305 0.208221 0.055359
0.208221 0.208221 0.055359
0.222137 0.208221 0.055359
0.236023 0.208221 0.055359
0.249908 0.208221 0.055359
0.263794 0.208221 0.055359
0.277710 0.208221 0.055359
0.291595 0.208221 0.055359
0.305481 0.208221 0.055359
0.319397 0.208221 0.055359
0.333282 0.208221 0.055359
0.347198 0.208221 0.055359
0.361084 0.208221 0.055359
0.374969 0.208221 0.055359
0.388855 0.208221 0.055359
0.402740 0.208221 0.055359
0.416626 0.208221 0.055359
0.430542 0.208221 0.055359
0.444458 0.208221 0.055359
0.458344 0.208221 0.055359
0.472260 0.208221 0.055359
0.486145 0.208221 0.055359
0.500031 0.208221 0.055359
0.513916 0.208221 0.055359
0.527802 0.208221 0.055359
0.541687 0.208221 0.055359
0.555634 0.208221 0.055359
0.569519 0.208221 0.055359
0.583405 0.208221 0.055359
0.597290 0.208221 0.055359
0.611176 0.208221 0.055359
0.625092 0.208221 0.055359
0.638977 0.208221 0.055359
0.652863 0.208221 0.055359
0.666809 0.208221 0.055359
0.680695 0.208221 0.055359
0.694580 0.208221 0.055359
0.708466 0.208221 0.055359
0.722351 0.208221 0.055359
0.736237 0.208221 0.055359
0.750153 0.208221 0.055359
0.764038 0.208221 0.055359
0.777954 0.208221 0.055359
0.791840 0.208221 0.055359
0.805725 0.208221 0.055359
0.819641 0.208221 0.055359
0.833527 0.208221 0.055359
0.847412 0.208221 0.055359
0.861328 0.208221 0.055359
0.875183 0.208221 0.055359
0.889130 0.208221 0.055359
0.903015 0.208221 0.055359
0.916901 0.208221 0.055359
0.930786 0.208221 0.055359
0.055359 0.222137 0.055359
0.069244 0.222137 0.055359
0.083160 0.222137 0.055359
0.097046 0.222137 0.055359
0.110962 0.222137 0.055359
0.124847 0.222137 0.055359
0.138733 0.222137 0.055359
0.152649 0.222137 0.055359
0.166534 0.222137 0.055359
0.180420 0.222137 0.055359
0.194305 0.222137 0.055359
0.208221 0.222137 0.055359
0.222137 0.222137 0.055359
0.236023 0.222137 0.055359
0.249908 0.222137 0.055359
0.263794 0.222137 0.055359
0.277710 0.222137 0.055359
0.291595 0.222137 0.055359
0.305481 0.222137 0.055359
0.319397 0.222137 0.055359
0.333282 0.222137 0.055359
0.347198 0.222137 0.055359
0.361084 0.222137 0.055359
0.374969 0.222137 0.055359
0.388855 0.222137 0.055359
0.402740 0.222137 0.055359
0.416626 0.222137 0.055359
0.430542 0.222137 0.055359
0.444458 0.222137 0.055359
0.458344 0.222137 0.055359
0.472260 0.222137 0.055359
0.486145 0.222137 0.055359
0.500031 0.222137 0.055359
0.513916 0.222137 0.055359
0.527802 0.222137 0.055359
0.541687 0.222137 0.055359
0.555634 0.222137 0.055359
0.569519 0.222137 0.055359
0.583405 0.222137 0.055359
0.597290 0.222137 0.055359
0.611176 0.222137 0.055359
0.625092 0.222137 0.055359
0.638977 0.222137 0.055359
0.652863 0.222137 0.055359
0.666809 0.222137 0.055359
0.680695 0.222137 0.055359
0.694580 0.222137 0.055359
0.708466 0.222137 0.055359
0.722351 0.222137 0.055359
0.736237 0.222137 0.055359
0.750153 0.222137 0.055359
0.764038 0.222137 0.055359
0.777954 0.222137 0.055359
0.791840 0.222137 0.055359
0.805725 0.222137 0.055359
0.819641 0.222137 0.055359
0.833527 0.222137 0.055359
0.847412 0.222137 0.055359
0.861328 0.222137 0.055359
0.875183 0.222137 0.055359
0.889130 0.222137 0.055359
0.903015 0.222137 0.055359
0.916901 0.222137 0.055359
0.930786 0.222137 0.055359
0.055359 0.236023 0.055359
0.069244 0.236023 0.055359
0.083160 0.236023 0.055359
0.097046 0.236023 0.055359
0.110962 0.236023 0.055359
0.124847 0.236023 0.055359
0.138733 0.236023 0.055359
0.152649 0.236023 0.055359
0.166534 0.236023 0.055359
0.180420 0.236023 0.055359
0.194305 0.236023 0.055359
0.208221 0.236023 0.055359
0.222137 0.236023 0.055359
0.236023 0.236023 0.055359
0.249908 0.236023 0.055359
0.263794 0.236023 0.055359
0.277710 0.236023 0.055359
0.291595 0.236023 0.055359
0.305481 0.236023 0.055359
0.319397 0.236023 0.055359
0.333282 0.236023 0.055359
0.347198 0.236023 0.055359
0.361084 0.236023 0.055359
0.374969 0.236023 0.055359
0.388855 0.236023 0.055359
0.402740 0.236023 0.055359
0.416626 0.236023 0.055359
0.430542 0.236023 0.055359
0.444458 0.236023 0.055359
0.458344 0.236023 0.055359
0.472260 0.236023 0.055359
0.486145 0.236023 0.055359
0.500031 0.236023 0.055359
0.513916 0.236023 0.055359
0.527802 0.236023 0.055359
0.541687 0.236023 0.055359
0.555634 0.236023 0.055359
0.569519 0.236023 0.055359
0.583405 0.236023 0.055359
0.597290 0.236023 0.055359
0.611176 0.236023 0.055359
0.625092 0.236023 0.055359
0.638977 0.236023 0.055359
0.652863 0.236023 0.055359
0.666809 0.236023 0.055359
0.680695 0.236023 0.055359
0.694580 0.236023 0.055359
0.708466 0.236023 0.055359
