assets/luts/ANDP-KodakPortra800-32bit.CUBE
#Created by: Adobe Photoshop Export Color Lookup Plugin
#Copyright: (C) Copyright 2024 Andp Filmstyles
TITLE "ANDP Kodak Portra 800 - 32"
#LUT size
LUT_3D_SIZE 8
#data domain
#LUT data points
DOMAIN_MIN 0.000000 0.000000 0.000000
DOMAIN_MAX 0.903226 0.903226 0.903226
0.038330 0.036896 0.048981
0.135529 0.032379 0.047791
0.298645 0.027161 0.043518
0.470917 0.020142 0.038818
0.627045 0.013947 0.035675
0.771515 0.008423 0.041656
0.894836 0.003906 0.056458
0.979034 0.001984 0.067780
0.059418 0.118408 0.054993
0.132599 0.127808 0.064117
0.290192 0.123901 0.057007
0.455414 0.120026 0.048096
0.603271 0.115875 0.041565
0.737213 0.111237 0.036743
0.845032 0.108093 0.036377
0.927887 0.106628 0.037201
0.097473 0.257507 0.064453
0.172760 0.269958 0.076172
0.272278 0.276733 0.084351
0.432465 0.271362 0.075531
0.577698 0.269623 0.069092
0.709351 0.267395 0.066528
0.816498 0.266022 0.065582
0.902313 0.265533 0.065643
0.136810 0.406616 0.073486
0.213409 0.419250 0.085754
0.311615 0.426147 0.093658
0.414825 0.433075 0.102081
0.554596 0.426514 0.100800
0.685181 0.425049 0.098724
0.793579 0.424408 0.097717
0.882965 0.424377 0.097412
0.172821 0.541748 0.082581
0.250214 0.554077 0.095703
0.348297 0.560974 0.104401
0.443390 0.566803 0.112091
0.543243 0.575470 0.123444
0.667084 0.567444 0.128906
0.777222 0.566986 0.128052
0.869720 0.567017 0.127625
0.205322 0.657043 0.096252
0.282745 0.668915 0.109467
0.380829 0.677002 0.118195
0.470551 0.683929 0.125183
0.563690 0.694000 0.134979
0.660461 0.705933 0.147583
0.766663 0.700806 0.155731
0.860260 0.697296 0.155945
0.232941 0.741516 0.109558
0.310822 0.753571 0.122955
0.408264 0.766052 0.131378
0.493835 0.778259 0.137268
0.583374 0.792450 0.146362
0.674896 0.807617 0.157471
0.765350 0.822235 0.170471
0.857117 0.818268 0.180267
0.256714 0.808655 0.121704
0.334900 0.815704 0.135437
0.431061 0.822205 0.144135
0.512817 0.828796 0.149780
0.599396 0.837250 0.158722
0.688110 0.846497 0.169617
0.774780 0.855469 0.181763
0.858490 0.862823 0.194885
0.047302 0.055084 0.125061
0.126648 0.045685 0.125488
0.285187 0.032776 0.117310
0.456085 0.025299 0.113800
0.609680 0.019135 0.114899
0.750793 0.013519 0.123688
0.867401 0.009369 0.133911
0.956787 0.006989 0.142578
0.054657 0.120361 0.123962
0.133575 0.125061 0.127594
0.288940 0.114349 0.116089
0.453613 0.108704 0.106659
0.601135 0.103607 0.102478
0.734406 0.099335 0.103607
0.840881 0.096680 0.105713
0.924133 0.095276 0.108643
0.083618 0.247864 0.130096
0.168976 0.255402 0.135345
0.272827 0.263702 0.145233
0.433777 0.259705 0.136780
0.578766 0.257751 0.132080
0.710297 0.255096 0.130768
0.816559 0.253723 0.130829
0.902283 0.253143 0.131500
0.119781 0.391113 0.137177
0.209564 0.403564 0.147736
0.311920 0.413269 0.158783
0.414490 0.420074 0.167847
0.555542 0.413818 0.165192
0.685944 0.412323 0.164062
0.793701 0.411652 0.163849
0.882996 0.411285 0.164215
0.154388 0.521362 0.145630
0.245789 0.537720 0.160583
0.348145 0.547363 0.172119
0.442902 0.553101 0.180359
0.542572 0.561707 0.191956
0.667786 0.554138 0.195435
0.777435 0.553680 0.195221
0.869812 0.553680 0.195282
0.186371 0.634491 0.159302
0.278412 0.651367 0.176208
0.380219 0.662048 0.187744
0.469818 0.669189 0.195068
0.563019 0.679504 0.205292
0.659546 0.691650 0.218079
0.765900 0.684845 0.224396
0.860474 0.683472 0.224640
0.213898 0.721893 0.172180
0.306580 0.738159 0.190643
0.407532 0.751221 0.201996
0.492737 0.762634 0.208466
0.582397 0.777008 0.217957
0.673889 0.792236 0.229340
0.764099 0.806976 0.242462
0.856262 0.799866 0.250122
0.237854 0.796112 0.183563
0.330780 0.807617 0.203552
0.430298 0.814514 0.214996
0.511841 0.820587 0.220978
0.598389 0.828674 0.230377
0.687164 0.837555 0.241608
0.773682 0.846405 0.253845
0.857574 0.853241 0.266418
0.062897 0.081940 0.239655
0.137512 0.075287 0.241577
0.268036 0.043823 0.234467
0.433960 0.032806 0.229645
0.585541 0.026520 0.232025
0.724884 0.020447 0.241516
0.840027 0.015991 0.250793
0.931763 0.013214 0.258575
0.068329 0.150391 0.237488
0.143158 0.156555 0.243439
0.270111 0.128632 0.232635
0.431274 0.119659 0.223328
0.577637 0.115112 0.221039
0.710175 0.111023 0.223694
0.817688 0.108398 0.227051
0.904694 0.106750 0.230225
0.074005 0.239990 0.227509
0.150665 0.246704 0.232574
0.274078 0.248596 0.233124
0.434021 0.242584 0.223236
0.578461 0.239777 0.219574
0.709412 0.236725 0.219818
0.814728 0.235046 0.221039
0.900452 0.234283 0.222687
0.103729 0.377258 0.234680
0.184937 0.383636 0.239105
0.310913 0.394135 0.247681
0.414825 0.400635 0.256592
0.557037 0.396667 0.253998
0.687286 0.395081 0.253784
0.794342 0.394379 0.254364
0.883484 0.394012 0.255249
0.135712 0.507019 0.245941
0.219116 0.512878 0.250244
0.346802 0.527557 0.263367
0.443085 0.534607 0.273163
0.542053 0.543182 0.285156
0.669006 0.536377 0.286072
0.778229 0.536041 0.286530
0.870422 0.535919 0.287170
0.165527 0.619446 0.260498
0.250061 0.624451 0.264648
0.378540 0.640961 0.280640
0.469574 0.649536 0.289429
0.562805 0.660248 0.300049
0.658905 0.672638 0.313110
0.766418 0.665497 0.316711
0.861237 0.665466 0.317230
0.191650 0.709717 0.273712
0.277222 0.714447 0.277802
0.405640 0.731720 0.295990
0.492279 0.742798 0.303925
0.581940 0.756439 0.313873
0.673462 0.771790 0.325653
0.763458 0.786682 0.338959
0.855957 0.776917 0.343811
0.214294 0.786621 0.285248
0.301392 0.791840 0.289978
0.428345 0.805023 0.309479
0.511292 0.811005 0.316833
0.597961 0.818665 0.326447
0.686707 0.827271 0.338013
0.773285 0.835907 0.350555
0.857208 0.841675 0.361755
0.079071 0.108276 0.359009
0.149750 0.105896 0.362457
0.274414 0.079346 0.358215
0.414703 0.041046 0.350769
0.563843 0.034027 0.353577
0.701477 0.027985 0.362671
0.816559 0.023438 0.371399
0.912811 0.019684 0.380066
0.084167 0.178497 0.356110
0.155518 0.187256 0.364227
0.277588 0.166321 0.358429
0.410919 0.130829 0.343567
0.555450 0.126251 0.342316
0.687073 0.122650 0.345551
0.796356 0.120026 0.349243
0.887054 0.118256 0.352783
0.090698 0.271118 0.346252
0.163605 0.279785 0.353638
0.280945 0.283600 0.356293
0.413116 0.251678 0.340668
0.556274 0.249329 0.338593
0.686340 0.247437 0.340515
0.793518 0.246399 0.342896
0.882965 0.245758 0.345276
0.095551 0.363190 0.333313
0.169983 0.371826 0.340454
0.287537 0.376404 0.343048
0.416260 0.380554 0.345337
0.559204 0.379730 0.343323
0.688873 0.377747 0.343811
0.794983 0.376495 0.344971
0.883789 0.375641 0.346313
0.122711 0.491547 0.345917
0.201447 0.499512 0.352295
0.320618 0.504669 0.355560
0.444366 0.516510 0.366211
0.543182 0.522919 0.375610
0.671082 0.519348 0.376526
0.779785 0.519043 0.377533
0.871857 0.518890 0.378540
0.150879 0.606079 0.362213
0.232086 0.612854 0.367981
0.351074 0.617584 0.371216
0.470459 0.630463 0.383301
0.563568 0.641632 0.394257
0.659241 0.653870 0.406586
0.768250 0.648071 0.408173
0.862915 0.648102 0.409027
0.176117 0.700684 0.376556
0.258789 0.706818 0.381958
0.377167 0.711243 0.385071
0.492859 0.724701 0.398407
0.582489 0.737793 0.408691
0.673950 0.752655 0.420837
0.763580 0.767456 0.434235
0.857361 0.758179 0.436188
0.198242 0.781250 0.389099
0.282043 0.786926 0.393982
0.399384 0.791412 0.397430
0.511841 0.802979 0.411560
0.598389 0.810455 0.421478
0.687134 0.818909 0.433289
0.773834 0.827362 0.446045
0.857727 0.832092 0.455994
0.093719 0.130524 0.467590
0.161743 0.130981 0.472565
0.283264 0.106720 0.469879
0.416473 0.077423 0.467773
0.547485 0.040558 0.464294
0.683685 0.034637 0.473419
0.800323 0.029877 0.482330
0.898773 0.025970 0.490448
0.098969 0.202240 0.464874
0.168274 0.212921 0.475159
0.286743 0.194946 0.470764
0.415924 0.167480 0.464874
0.537415 0.135986 0.451508
0.668182 0.132874 0.455414
0.779358 0.130371 0.459320
0.873383 0.128296 0.463165
0.105042 0.296448 0.455017
0.175690 0.306793 0.464539
0.290405 0.312164 0.468872
0.418030 0.289856 0.462921
0.537750 0.259521 0.447662
0.667145 0.257965 0.450226
0.776581 0.256897 0.453003
0.869110 0.256134 0.455658
0.112213 0.391846 0.444855
0.184113 0.401886 0.453918
0.299316 0.407562 0.458282
0.421692 0.411530 0.461365
0.541870 0.384216 0.446777
0.670532 0.383453 0.448944
0.779022 0.383148 0.451385
0.870880 0.382996 0.453705
0.117462 0.477417 0.434784
0.190063 0.487518 0.443481
0.306091 0.494110 0.448242
0.428040 0.498871 0.451538
0.544830 0.504944 0.456451
0.673492 0.504181 0.457611
0.781708 0.503998 0.458954
0.873505 0.503510 0.460388
0.142792 0.594238 0.452240
0.219604 0.603119 0.459991
0.336273 0.609375 0.464539
0.453552 0.614014 0.467865
0.564972 0.625275 0.478394
0.660645 0.635742 0.488403
0.770477 0.632843 0.489868
0.864960 0.632935 0.491119
0.166687 0.692749 0.467712
0.245941 0.700653 0.474640
0.362244 0.706421 0.479034
0.475555 0.710968 0.482452
0.583618 0.722443 0.493225
0.675079 0.737000 0.505615
0.764709 0.750031 0.517242
0.859528 0.743713 0.518646
0.187988 0.776520 0.480896
0.268860 0.783813 0.487427
0.384277 0.789246 0.491608
0.494263 0.793793 0.495117
0.599579 0.804382 0.506042
0.688293 0.812805 0.518036
0.774811 0.821198 0.531006
0.858765 0.825073 0.540131
0.108185 0.149841 0.564636
0.173584 0.152039 0.569611
0.292999 0.129852 0.569733
0.422607 0.102234 0.568329
0.545166 0.076447 0.572327
0.669495 0.040680 0.575165
0.787628 0.035828 0.583801
0.888458 0.031738 0.591797
0.113678 0.222443 0.560974
0.180664 0.234436 0.571960
0.296112 0.219299 0.569885
0.423279 0.192688 0.566254
0.540619 0.169891 0.565369
0.652435 0.141876 0.555664
0.765808 0.139404 0.559937
0.862427 0.137238 0.563812
0.119202 0.317841 0.551880
0.187622 0.329437 0.562317
0.300049 0.336060 0.567688
0.425201 0.316162 0.564178
0.540863 0.293915 0.561920
0.651123 0.267273 0.550446
0.762787 0.266266 0.553375
0.857971 0.265411 0.556152
0.126099 0.414246 0.543640
0.195801 0.425537 0.553802
0.308807 0.432434 0.559265
0.428925 0.436462 0.562256
0.544586 0.419037 0.561371
0.654480 0.392914 0.549347
0.765411 0.392578 0.551971
0.859924 0.392273 0.554413
0.134094 0.502655 0.538635
0.204803 0.513672 0.548553
0.318207 0.520630 0.554077
0.438446 0.525177 0.557434
0.549530 0.530029 0.561615
0.659943 0.506348 0.550201
0.770264 0.506409 0.552704
0.864227 0.506622 0.555023
0.139679 0.583282 0.533142
0.211609 0.594604 0.543243
0.325684 0.602539 0.549316
0.445892 0.608185 0.553375
0.555573 0.612793 0.556915
0.662384 0.619354 0.562408
0.772919 0.619110 0.564026
0.867157 0.619202 0.565460
0.161713 0.685455 0.547760
0.236938 0.695404 0.556458
0.351318 0.702637 0.562012
0.467865 0.708069 0.565948
0.574341 0.712921 0.569733
0.676544 0.724274 0.580505
0.766327 0.734863 0.592010
0.861755 0.731812 0.593445
0.181702 0.772369 0.559784
0.259247 0.781311 0.567474
0.373199 0.788055 0.572601
0.486481 0.793365 0.576447
0.590271 0.798492 0.580475
0.689697 0.808716 0.591003
0.776184 0.816895 0.606293
0.860107 0.819946 0.616425
0.121002 0.165070 0.638550
0.184387 0.168640 0.645721
0.302399 0.148468 0.650879
0.429688 0.122070 0.652863
0.549377 0.098053 0.658234
0.663635 0.074371 0.668671
0.778351 0.041016 0.675812
0.881622 0.036407 0.684204
0.125793 0.238647 0.636719
0.191772 0.251404 0.648254
0.305237 0.238770 0.650787
0.430603 0.213165 0.651093
0.546448 0.191254 0.652954
0.654114 0.171875 0.656921
0.755096 0.147247 0.650269
0.853790 0.145050 0.654327
0.131500 0.334900 0.630859
0.198639 0.347382 0.642029
0.309204 0.354980 0.648438
0.432526 0.337494 0.649017
0.547028 0.315979 0.649933
0.652771 0.297272 0.651855
0.751923 0.274414 0.643402
0.849152 0.273560 0.646332
0.138489 0.432281 0.626099
0.206696 0.444397 0.637054
0.317841 0.452362 0.643616
0.436737 0.457062 0.647339
0.550873 0.441620 0.649475
0.655914 0.422638 0.650604
0.754608 0.400848 0.642059
0.851227 0.400513 0.644653
0.146423 0.521484 0.624115
0.215576 0.533325 0.634857
0.327148 0.541382 0.641449
0.446106 0.546539 0.645538
0.555481 0.550690 0.649017
0.661163 0.535767 0.651306
0.759583 0.514709 0.643036
0.855713 0.514801 0.645355
0.154633 0.602570 0.623932
0.224731 0.614227 0.634552
0.336487 0.622223 0.641235
0.455383 0.627563 0.645508
0.564331 0.631744 0.648987
0.666840 0.635742 0.652374
0.765717 0.618866 0.645081
0.861389 0.619232 0.647369
0.160675 0.678741 0.622650
0.231781 0.690765 0.633301
0.344330 0.699615 0.640350
0.463074 0.705963 0.645142
0.571625 0.710999 0.648956
0.672607 0.716797 0.653931
0.768005 0.722229 0.658813
0.864044 0.722015 0.660461
0.179230 0.768463 0.633484
0.253387 0.779053 0.642853
0.365814 0.787231 0.649323
0.481476 0.793427 0.653900
0.587280 0.798401 0.657654
0.685791 0.804413 0.662781
0.777649 0.813843 0.673401
0.861511 0.816071 0.684692
0.131561 0.177704 0.701843
0.194092 0.182037 0.710907
0.311096 0.163574 0.720367
0.436829 0.138062 0.725647
0.554474 0.115265 0.732758
0.665680 0.093628 0.743164
0.770660 0.070709 0.755890
0.876068 0.040863 0.767090
0.136688 0.251648 0.701538
0.201874 0.264862 0.713623
0.313202 0.254333 0.719696
0.437683 0.229797 0.723846
0.552521 0.208527 0.728424
0.658783 0.189941 0.734161
0.755890 0.172119 0.738983
0.846771 0.151855 0.735626
0.142426 0.348633 0.698486
0.208496 0.361786 0.710297
0.317627 0.370178 0.717621
0.439331 0.354797 0.721741
0.553101 0.333893 0.725464
0.657959 0.315948 0.729919
0.753052 0.298798 0.732361
0.842010 0.280670 0.727478
0.149353 0.446960 0.696808
0.216553 0.459656 0.708405
0.326233 0.468353 0.715851
0.444031 0.473694 0.720215
0.556885 0.459991 0.725067
0.661224 0.442139 0.729370
0.755646 0.424744 0.730804
0.844177 0.407684 0.725830
0.157379 0.536652 0.697418
0.225403 0.549255 0.708832
0.335388 0.558044 0.716309
0.453217 0.563843 0.720947
0.561646 0.567932 0.724487
0.666351 0.555969 0.730621
0.760559 0.538177 0.731598
0.848846 0.522034 0.726593
0.165375 0.616760 0.699432
0.234161 0.628906 0.710724
0.344452 0.637634 0.718262
0.462250 0.643402 0.723145
0.570648 0.647766 0.726990
0.671539 0.652832 0.731750
0.766449 0.640106 0.733429
0.854706 0.626465 0.728699
0.173645 0.692719 0.702606
0.243195 0.704895 0.713745
0.353760 0.713867 0.721436
0.471497 0.720184 0.726562
0.579803 0.724976 0.730591
0.679321 0.729065 0.734222
0.772430 0.731201 0.735443
0.860809 0.720245 0.731262
0.179565 0.764587 0.703430
0.250275 0.776917 0.714355
0.361389 0.786560 0.722290
0.478729 0.793671 0.727722
0.586487 0.799164 0.731995
0.685333 0.803894 0.735870
0.776886 0.810516 0.741913
0.862885 0.813141 0.745148
