assets/luts/ANDP-KodakEktachromeE100-32.CUBE
#Created by: Adobe Photoshop Export Color Lookup Plugin
#Copyright: (C) Copyright 2024 Andp Filmstyles
TITLE "Kodak Ektachrome 100 - 32"
#LUT size
LUT_3D_SIZE 5
#data domain
#LUT data points
DOMAIN_MIN 0.000000 0.000000 0.000000
DOMAIN_MAX 0.903226 0.903226 0.903226
0.081177 0.069580 0.073700
0.212128 0.074127 0.061218
0.444092 0.091309 0.066620
0.680634 0.114868 0.077423
0.809601 0.123077 0.080902
0.091217 0.187531 0.133209
0.210724 0.195648 0.111206
0.439423 0.212494 0.087372
0.678406 0.228699 0.089417
0.809174 0.239441 0.093597
0.105225 0.334167 0.221130
0.198822 0.351257 0.208008
0.434448 0.367554 0.168243
0.679993 0.389587 0.143341
0.809692 0.393738 0.128479
0.128418 0.558838 0.356079
0.215424 0.581757 0.346619
0.341614 0.604218 0.323364
0.701660 0.613098 0.252563
0.840393 0.611664 0.231750
0.152008 0.727142 0.425629
0.249664 0.747955 0.421295
0.380737 0.769318 0.406433
0.654602 0.807007 0.355438
0.861725 0.809052 0.316284
0.093842 0.079346 0.187347
0.225189 0.066406 0.144958
0.443420 0.080933 0.133789
0.683350 0.111115 0.146637
0.812683 0.119934 0.150757
0.099701 0.200073 0.230225
0.215363 0.205872 0.209991
0.450592 0.219238 0.169281
0.683868 0.232269 0.164459
0.812744 0.241150 0.168243
0.114838 0.358002 0.320435
0.206604 0.375763 0.314117
0.441528 0.379028 0.253815
0.681030 0.398682 0.227051
0.810120 0.401703 0.211395
0.138214 0.578461 0.457794
0.224854 0.602020 0.452301
0.348907 0.620605 0.424438
0.705231 0.622681 0.335785
0.842560 0.621460 0.314941
0.154388 0.736328 0.511505
0.250519 0.754669 0.511169
0.389282 0.778534 0.509949
0.660217 0.810089 0.437012
0.863190 0.812134 0.397461
0.125061 0.103973 0.399780
0.242676 0.080322 0.303467
0.459045 0.068085 0.238251
0.690979 0.091980 0.218353
0.818359 0.101624 0.214386
0.124481 0.225250 0.435791
0.236389 0.235413 0.441528
0.472260 0.199707 0.275116
0.693787 0.212006 0.243073
0.818878 0.220642 0.238678
0.130341 0.389160 0.475098
0.231842 0.411530 0.481354
0.486206 0.485260 0.480743
0.701599 0.475220 0.398651
0.824493 0.448364 0.338654
0.162048 0.641632 0.624512
0.252960 0.659393 0.630585
0.380280 0.677826 0.624359
0.722961 0.684296 0.500519
0.852783 0.660675 0.433746
0.164764 0.759308 0.614288
0.264832 0.780090 0.624786
0.405060 0.804352 0.644104
0.669067 0.828400 0.577759
0.865784 0.822571 0.495026
0.158813 0.132263 0.623047
0.268250 0.120483 0.563599
0.456177 0.086029 0.434998
0.726105 0.071594 0.340027
0.847656 0.079010 0.324646
0.157135 0.261200 0.681458
0.259094 0.263794 0.668488
0.457672 0.233826 0.539154
0.729004 0.178436 0.369659
0.850677 0.179321 0.352570
0.158264 0.426849 0.750854
0.256989 0.439636 0.738007
0.438599 0.512085 0.734161
0.738281 0.445740 0.546967
0.854858 0.430817 0.488739
0.163849 0.652527 0.791718
0.269379 0.669159 0.796844
0.413269 0.700012 0.791260
0.738312 0.757965 0.764221
0.873901 0.757202 0.729980
0.198822 0.846039 0.799194
0.308838 0.852173 0.808105
0.432068 0.860077 0.819122
0.684692 0.870605 0.822418
0.880341 0.885254 0.778961
0.169891 0.143005 0.708801
0.271606 0.132690 0.667267
0.433807 0.111053 0.584320
0.737732 0.075775 0.473694
0.863342 0.069489 0.424805
0.168610 0.277405 0.768555
0.270111 0.279785 0.751770
0.412323 0.268158 0.699493
0.746246 0.182068 0.506287
0.866913 0.165527 0.455292
0.167847 0.444244 0.848785
0.265594 0.453064 0.834717
0.410797 0.509491 0.831421
0.746765 0.462799 0.687012
0.877319 0.389008 0.581726
0.162231 0.660553 0.913269
0.268280 0.672363 0.912781
0.396606 0.694366 0.908539
0.729431 0.766510 0.883911
0.887421 0.730103 0.811646
0.185638 0.849365 0.900604
0.305786 0.853027 0.902283
0.433838 0.858704 0.905334
0.702484 0.888763 0.915680
0.882477 0.903778 0.908234
