assets/luts/ANDP-Film-Fading.CUBE
#Created by: Adobe Photoshop Export Color Lookup Plugin
#Copyright: (C) Copyright 2022 Thomas Andreas Parpoulas
TITLE "ANDP-Film-Fading"
#LUT size
LUT_3D_SIZE 4
#data domain
DOMAIN_MIN 0.0 0.0 0.0
DOMAIN_MAX 1.0 1.0 1.0
#LUT data points
0.055359 0.055359 0.055359
0.347198 0.055359 0.055359
0.638977 0.055359 0.055359
0.930786 0.055359 0.055359
0.055359 0.347198 0.055359
0.347198 0.347198 0.055359
0.638977 0.347198 0.055359
0.930786 0.347198 0.055359
0.055359 0.638977 0.055359
0.347198 0.638977 0.055359
0.638977 0.638977 0.055359
0.930786 0.638977 0.055359
0.055359 0.930786 0.055359
0.347198 0.930786 0.055359
0.638977 0.930786 0.055359
0.930786 0.930786 0.055359
0.055359 0.055359 0.347198
0.347198 0.055359 0.347198
0.638977 0.055359 0.347198
0.930786 0.055359 0.347198
0.055359 0.347198 0.347198
0.347198 0.347198 0.347198
0.638977 0.347198 0.347198
0.930786 0.347198 0.347198
0.055359 0.638977 0.347198
0.347198 0.638977 0.347198
0.638977 0.638977 0.347198
0.930786 0.638977 0.347198
0.055359 0.930786 0.347198
0.347198 0.930786 0.347198
0.638977 0.930786 0.347198
0.930786 0.930786 0.347198
0.055359 0.055359 0.638977
0.347198 0.055359 0.638977
0.638977 0.055359 0.638977
0.930786 0.055359 0.638977
0.055359 0.347198 0.638977
0.347198 0.347198 0.638977
0.638977 0.347198 0.638977
0.930786 0.347198 0.638977
0.055359 0.638977 0.638977
0.347198 0.638977 0.638977
0.638977 0.638977 0.638977
0.930786 0.638977 0.638977
0.055359 0.930786 0.638977
0.347198 0.930786 0.638977
0.638977 0.930786 0.638977
0.930786 0.930786 0.638977
0.055359 0.055359 0.930786
0.347198 0.055359 0.930786
0.638977 0.055359 0.930786
0.930786 0.055359 0.930786
0.055359 0.347198 0.930786
0.347198 0.347198 0.930786
0.638977 0.347198 0.930786
0.930786 0.347198 0.930786
0.055359 0.638977 0.930786
0.347198 0.638977 0.930786
0.638977 0.638977 0.930786
0.930786 0.638977 0.930786
0.055359 0.930786 0.930786
0.347198 0.930786 0.930786
0.638977 0.930786 0.930786
0.930786 0.930786 0.930786
