assets/luts/ANDP-KodakPortra800-32bit.CUBE
#Created by: Adobe Photoshop Export Color Lookup Plugin
#Copyright: (C) Copyright 2024 Andp Filmstyles
TITLE "ANDP Kodak Portra 800 - 32"
#LUT size
LUT_3D_SIZE 32
#data domain
DOMAIN_MIN 0.0 0.0 0.0
DOMAIN_MAX 1.0 1.0 1.0
#LUT data points
0.038330 0.036896 0.048981
0.054779 0.034882 0.048187
0.075470 0.032776 0.048767
0.102722 0.032837 0.047913
0.135529 0.032379 0.047791
0.172333 0.031769 0.046295
0.212280 0.030487 0.045959
0.255035 0.028748 0.045135
0.298645 0.027161 0.043518
0.343414 0.025085 0.042816
0.387329 0.023315 0.041443
0.429840 0.021637 0.040131
0.470917 0.020142 0.038818
0.511658 0.018402 0.037781
0.551575 0.016724 0.036774
0.588989 0.015564 0.035675
0.627045 0.013947 0.035675
0.663574 0.012665 0.035400
0.700592 0.011108 0.036621
0.736603 0.009644 0.039368
0.771515 0.008423 0.041656
0.805115 0.007324 0.044250
0.838837 0.006073 0.047272
0.867676 0.005066 0.051147
0.894836 0.003906 0.056458
0.914612 0.004150 0.055328
0.939758 0.003174 0.060486
0.963745 0.002380 0.065063
0.979034 0.001984 0.067780
0.984192 0.001862 0.069000
0.988770 0.001740 0.070007
0.992676 0.001617 0.071259
0.040466 0.049500 0.048859
0.055298 0.050812 0.049744
0.076813 0.048462 0.049164
0.103882 0.048340 0.048737
0.137451 0.047211 0.048431
0.174347 0.046021 0.047577
0.213562 0.044891 0.045746
0.255798 0.042938 0.044342
0.298889 0.041168 0.042694
0.342407 0.039337 0.041107
0.385376 0.037537 0.039520
0.427368 0.035583 0.038055
0.467896 0.033752 0.036774
0.507446 0.031982 0.035217
0.546112 0.030243 0.033875
0.583588 0.028412 0.032959
0.619690 0.026733 0.032379
0.655701 0.024872 0.031891
0.690521 0.023285 0.031036
0.724701 0.021576 0.030212
0.757874 0.020020 0.029327
0.790253 0.018463 0.029449
0.821320 0.016998 0.030243
0.846832 0.015961 0.031036
0.869995 0.014984 0.032593
0.891876 0.014160 0.033295
0.913147 0.013306 0.034332
0.933411 0.012543 0.035156
0.953186 0.011749 0.036346
0.972473 0.010986 0.037506
0.982544 0.010193 0.038696
0.986816 0.009583 0.039246
0.043640 0.067017 0.050354
0.060425 0.068390 0.052185
0.077301 0.069855 0.052612
0.104645 0.068878 0.053589
0.136627 0.069122 0.052307
0.173401 0.068390 0.050903
0.212585 0.067627 0.049316
0.254333 0.066040 0.048065
0.296997 0.064758 0.046204
0.340302 0.063019 0.044403
0.383118 0.061371 0.042664
0.424561 0.059784 0.040771
0.464539 0.058350 0.039154
0.503510 0.056824 0.037537
0.541992 0.055115 0.035919
0.578705 0.053741 0.034515
0.614899 0.051697 0.033630
0.649902 0.050171 0.032532
0.684723 0.048279 0.031433
0.718567 0.046356 0.030243
0.751312 0.044647 0.028992
0.783081 0.043060 0.027618
0.813782 0.041107 0.026428
0.838623 0.040283 0.026672
0.861206 0.039581 0.027649
0.882965 0.039093 0.028046
0.904083 0.038269 0.029053
0.924194 0.037842 0.029541
0.943390 0.037659 0.029938
0.962463 0.037018 0.030701
0.980072 0.036407 0.031525
0.984863 0.036041 0.032196
0.050781 0.090576 0.052734
0.067719 0.092834 0.054382
0.084686 0.095367 0.056976
0.103577 0.096588 0.058899
0.134613 0.095856 0.057892
0.171143 0.095184 0.056946
0.210083 0.094757 0.054871
0.251343 0.093903 0.053131
0.294067 0.092438 0.051208
0.336914 0.091309 0.049011
0.379303 0.090057 0.046997
0.420258 0.088867 0.045166
0.459961 0.087708 0.043243
0.498810 0.086426 0.041473
0.536682 0.085266 0.039581
0.573303 0.083832 0.038208
0.608948 0.082581 0.037079
0.643982 0.081024 0.035980
0.678101 0.079712 0.034790
0.711670 0.078186 0.033569
0.744049 0.076874 0.032257
0.775757 0.075287 0.031006
0.805359 0.074249 0.030396
0.829987 0.073425 0.030579
0.852783 0.072784 0.030792
0.874542 0.072296 0.031189
0.895599 0.071655 0.031464
0.915649 0.071259 0.031799
0.935272 0.070709 0.032104
0.954407 0.070190 0.032501
0.973236 0.069611 0.032898
0.981659 0.069092 0.033295
0.059418 0.118408 0.054993
0.076263 0.121216 0.057220
0.093201 0.124298 0.060394
0.111450 0.126556 0.062866
0.132599 0.127808 0.064117
0.167725 0.126099 0.063080
0.206543 0.125702 0.061310
0.248047 0.124786 0.059113
0.290192 0.123901 0.057007
0.332764 0.123077 0.054565
0.375031 0.121948 0.052368
0.415710 0.121033 0.050262
0.455414 0.120026 0.048096
0.493927 0.119110 0.046112
0.531372 0.118286 0.044098
0.567780 0.117188 0.042633
0.603271 0.115875 0.041565
0.637848 0.114716 0.040283
0.671875 0.113617 0.039062
0.705048 0.112427 0.037781
0.737213 0.111237 0.036743
0.768616 0.110168 0.036377
0.797821 0.109192 0.036255
0.822174 0.108612 0.036285
0.845032 0.108093 0.036377
0.867035 0.107452 0.036652
0.887787 0.107330 0.036774
0.908142 0.106995 0.036865
0.927887 0.106628 0.037201
0.947052 0.106201 0.037384
0.965912 0.105988 0.037659
0.977478 0.105682 0.038025
0.068298 0.149933 0.057526
0.085510 0.153259 0.060150
0.102753 0.156616 0.063202
0.121185 0.158813 0.065613
0.141907 0.160797 0.067505
0.165100 0.162201 0.069366
0.202759 0.159790 0.067993
0.243958 0.159027 0.065643
0.285828 0.158386 0.063110
0.328247 0.157684 0.060577
0.370331 0.156830 0.058411
0.410736 0.156189 0.056000
0.450134 0.155273 0.053864
0.488373 0.154602 0.051636
0.525635 0.154053 0.049500
0.561829 0.153076 0.047943
0.597229 0.151917 0.046783
0.631653 0.151093 0.045471
0.665497 0.150116 0.044373
0.698425 0.149170 0.043915
0.730408 0.148193 0.043518
0.761597 0.147186 0.043060
0.790253 0.146454 0.042755
0.814697 0.145966 0.042847
0.837677 0.145569 0.042938
0.859589 0.145355 0.042938
0.880737 0.144958 0.043121
0.901276 0.144684 0.043213
0.920990 0.144470 0.043427
0.940399 0.144287 0.043640
0.959290 0.144012 0.043823
0.973175 0.143707 0.044098
0.077576 0.183838 0.059692
0.095306 0.187622 0.063171
0.111969 0.191437 0.066559
0.131104 0.193481 0.068604
0.152039 0.195404 0.070770
0.174683 0.197235 0.072754
0.199646 0.198853 0.074768
0.239136 0.195801 0.072784
0.281036 0.194794 0.070282
0.323334 0.194244 0.067627
0.364990 0.193756 0.064972
0.405457 0.193085 0.062531
0.444519 0.192719 0.060028
0.482574 0.192078 0.057861
0.519775 0.191498 0.055664
0.555695 0.190826 0.054016
0.590942 0.189972 0.053192
0.625153 0.189209 0.052460
0.658783 0.188354 0.051910
0.691589 0.187500 0.051300
0.723480 0.186737 0.050720
0.754425 0.185883 0.050507
0.782928 0.185242 0.050018
0.807281 0.184906 0.050079
0.830414 0.184692 0.049988
0.852570 0.184418 0.050171
0.873962 0.184235 0.050140
0.894562 0.183990 0.050293
0.914429 0.183838 0.050476
0.934021 0.183655 0.050568
0.953217 0.183502 0.050629
0.968811 0.183380 0.050964
0.087585 0.219849 0.061981
0.104950 0.224426 0.065857
0.122253 0.228119 0.069458
0.141174 0.230255 0.071564
0.161957 0.232269 0.073761
0.184875 0.234009 0.075684
0.209106 0.235596 0.077759
0.235413 0.237396 0.079712
0.275940 0.233734 0.077698
0.317749 0.232849 0.075134
0.359375 0.232361 0.072388
0.399597 0.231903 0.069946
0.438446 0.231598 0.067596
0.476471 0.231140 0.065369
0.513458 0.230835 0.063110
0.549316 0.230164 0.061737
0.584229 0.229553 0.061005
0.618469 0.228760 0.060394
0.651978 0.228058 0.059662
0.684662 0.227325 0.059174
0.716400 0.226715 0.058685
0.747192 0.226135 0.058197
0.775543 0.225464 0.057770
0.799957 0.225281 0.057709
0.823364 0.225067 0.057648
0.845673 0.224945 0.057739
0.867279 0.224762 0.057770
0.888031 0.224548 0.057800
0.908264 0.224426 0.057800
0.927887 0.224243 0.057983
0.947205 0.224152 0.058105
0.964355 0.223907 0.058258
0.097473 0.257507 0.064453
0.114960 0.262177 0.068542
0.132874 0.265747 0.072083
0.151764 0.267914 0.074127
0.172760 0.269958 0.076172
0.195404 0.271912 0.078278
0.219635 0.273560 0.080353
0.244812 0.275146 0.081970
0.272278 0.276733 0.084351
0.312408 0.273132 0.082794
0.353424 0.272095 0.080292
0.393494 0.271759 0.077728
0.432465 0.271362 0.075531
0.470093 0.271179 0.073212
0.507141 0.270813 0.071045
0.542877 0.270386 0.069733
0.577698 0.269623 0.069092
0.611847 0.269104 0.068329
0.645203 0.268616 0.067657
0.677704 0.267975 0.067108
0.709351 0.267395 0.066528
0.740021 0.266876 0.066132
0.768219 0.266327 0.065765
0.792908 0.266205 0.065643
0.816498 0.266022 0.065582
0.839111 0.265961 0.065613
0.860809 0.265778 0.065582
0.881866 0.265747 0.065674
0.902313 0.265533 0.065643
0.922180 0.265594 0.065552
0.941742 0.265442 0.065826
0.959869 0.265381 0.065887
0.107513 0.295746 0.066711
0.124939 0.300537 0.070923
0.143188 0.304108 0.074249
0.161987 0.306274 0.076599
0.183044 0.308319 0.078613
0.205963 0.310211 0.080780
0.230164 0.311981 0.082642
0.255463 0.313446 0.084625
0.281097 0.315033 0.086395
0.309052 0.316742 0.088531
0.348389 0.313721 0.087799
0.387756 0.311737 0.085510
0.426422 0.311493 0.083282
0.464111 0.311249 0.081116
0.500885 0.311157 0.078979
0.536377 0.310760 0.077881
0.571259 0.310181 0.077148
0.605255 0.309692 0.076447
0.638580 0.309204 0.075836
0.671082 0.308624 0.075256
0.702576 0.308136 0.074677
0.733063 0.307709 0.074188
0.761200 0.307373 0.073975
0.786102 0.307190 0.073792
0.810028 0.306976 0.073730
0.832947 0.306854 0.073639
0.854858 0.306793 0.073578
0.876038 0.306854 0.073578
0.896729 0.306641 0.073639
0.916901 0.306549 0.073547
0.936615 0.306519 0.073669
0.955505 0.306641 0.073792
0.117371 0.333862 0.069031
0.134949 0.338593 0.073578
0.153534 0.342133 0.076660
0.172302 0.344330 0.078949
0.193604 0.346313 0.081085
0.216492 0.348297 0.083130
0.240692 0.350006 0.085083
0.265839 0.351624 0.087067
0.291534 0.353088 0.088959
0.317230 0.354675 0.090790
0.345490 0.356506 0.093048
0.383240 0.354156 0.092926
0.420868 0.351349 0.091095
0.458221 0.351074 0.089020
0.494904 0.350983 0.087036
0.530518 0.350555 0.085754
0.565277 0.350067 0.085022
0.599182 0.349548 0.084564
0.632416 0.349213 0.083893
0.664764 0.348785 0.083374
0.696259 0.348297 0.082886
0.726807 0.347900 0.082367
0.754700 0.347565 0.081970
0.779846 0.347473 0.081940
0.803925 0.347504 0.081787
0.827118 0.347290 0.081696
0.849304 0.347321 0.081696
0.870758 0.347137 0.081665
0.891724 0.347168 0.081604
0.911926 0.347107 0.081665
0.932037 0.347046 0.081573
0.951385 0.346924 0.081696
0.127075 0.370697 0.071228
0.144897 0.375519 0.075806
0.163727 0.378906 0.079102
0.182465 0.381226 0.081268
0.203613 0.383240 0.083435
0.226501 0.385223 0.085571
0.250763 0.386993 0.087616
0.276123 0.388580 0.089386
0.301697 0.390198 0.091278
0.327057 0.391632 0.093140
0.352570 0.393188 0.094940
0.380585 0.395264 0.097565
0.417084 0.393524 0.098206
0.453278 0.390350 0.096710
0.489594 0.389526 0.094696
0.524994 0.389313 0.093628
0.559692 0.388824 0.092957
0.593475 0.388428 0.092499
0.626770 0.387970 0.091919
0.659088 0.387665 0.091370
0.690521 0.387238 0.090851
0.720947 0.386902 0.090363
0.748749 0.386658 0.090057
0.774170 0.386566 0.089844
0.798492 0.386505 0.089844
0.821930 0.386383 0.089752
0.844330 0.386322 0.089691
0.866089 0.386292 0.089600
0.887085 0.386292 0.089569
0.907593 0.386261 0.089539
0.927887 0.386292 0.089569
0.947571 0.386230 0.089600
0.136810 0.406616 0.073486
0.155029 0.411407 0.077820
0.173340 0.414886 0.081177
0.192291 0.417145 0.083618
0.213409 0.419250 0.085754
0.236389 0.421173 0.087891
0.260712 0.422882 0.089874
0.285919 0.424561 0.091766
0.311615 0.426147 0.093658
0.336792 0.427582 0.095428
0.361694 0.429108 0.097290
0.386841 0.430908 0.099365
0.414825 0.433075 0.102081
0.450134 0.432037 0.103455
0.485260 0.428467 0.102112
0.520020 0.426819 0.101440
0.554596 0.426514 0.100800
0.588409 0.426086 0.100250
0.621582 0.425690 0.099762
0.653839 0.425354 0.099213
0.685181 0.425049 0.098724
0.715576 0.424774 0.098297
0.743317 0.424591 0.097931
0.768982 0.424530 0.097809
0.793579 0.424408 0.097717
0.817200 0.424438 0.097656
0.839783 0.424438 0.097504
0.861755 0.424286 0.097412
0.882965 0.424377 0.097412
0.903687 0.424286 0.097321
0.924164 0.424194 0.097321
0.943970 0.424408 0.097351
0.145905 0.441772 0.075531
0.164276 0.446533 0.080048
0.182709 0.449982 0.083466
0.201813 0.452148 0.085724
0.222931 0.454285 0.088013
0.245941 0.456207 0.090057
0.270355 0.457977 0.092102
0.295624 0.459564 0.094025
0.321167 0.461212 0.095917
0.346100 0.462616 0.097748
0.370667 0.464111 0.099518
0.395508 0.465790 0.101624
0.420471 0.467712 0.103851
0.448151 0.470032 0.106781
0.482544 0.469482 0.108826
0.516357 0.465820 0.108521
0.549866 0.463196 0.108521
0.583618 0.462769 0.107971
0.616669 0.462555 0.107483
0.648895 0.462311 0.106964
0.680298 0.461884 0.106537
0.710602 0.461700 0.106079
0.738281 0.461487 0.105804
0.764191 0.461395 0.105621
0.788940 0.461365 0.105469
0.812775 0.461273 0.105377
0.835632 0.461304 0.105286
0.857727 0.461212 0.105225
0.879272 0.461212 0.105133
0.900177 0.461273 0.105011
0.920776 0.461212 0.105133
0.940704 0.461182 0.105042
0.155334 0.476013 0.077545
0.173737 0.480896 0.082092
0.192017 0.484314 0.085388
0.211182 0.486603 0.087677
0.232330 0.488617 0.089935
0.255341 0.490601 0.092224
0.279663 0.492340 0.094269
0.304932 0.493958 0.096283
0.330475 0.495575 0.098114
0.355103 0.496948 0.099945
0.379364 0.498383 0.101654
0.403809 0.500061 0.103699
0.428375 0.501923 0.105865
0.453186 0.503937 0.108276
0.480774 0.506348 0.111389
0.513702 0.506104 0.115265
0.546844 0.502472 0.115326
0.579315 0.499359 0.115387
0.612183 0.498505 0.114990
0.644379 0.498199 0.114594
0.675568 0.498016 0.114075
0.705872 0.497681 0.113770
0.733612 0.497589 0.113403
0.759735 0.497589 0.113251
0.784760 0.497559 0.113129
0.808716 0.497467 0.113037
0.831879 0.497467 0.112976
0.854095 0.497467 0.112793
0.875732 0.497528 0.112793
0.896881 0.497375 0.112732
0.917664 0.497467 0.112671
0.937653 0.497437 0.112732
0.164185 0.509277 0.079681
0.182800 0.514069 0.084381
0.200989 0.517487 0.087708
0.220154 0.519714 0.090088
0.241364 0.521790 0.092499
0.264404 0.523712 0.094757
0.288727 0.525452 0.096893
0.313965 0.527161 0.098907
0.339569 0.528656 0.101013
0.363861 0.529968 0.102661
0.387512 0.531372 0.104553
0.411530 0.532990 0.106506
0.435974 0.534790 0.108765
0.460419 0.536713 0.111206
0.485199 0.538849 0.113800
0.512299 0.541199 0.117432
0.544495 0.541412 0.121857
0.576752 0.537964 0.122131
0.608459 0.534637 0.122162
0.640076 0.533173 0.122009
0.671295 0.532959 0.121552
0.701477 0.532715 0.121246
0.729248 0.532654 0.120941
0.755676 0.532654 0.120789
0.780853 0.532593 0.120636
0.805054 0.532532 0.120544
0.828308 0.532654 0.120453
0.850800 0.532562 0.120361
0.872620 0.532532 0.120270
0.893951 0.532501 0.120209
0.914886 0.532654 0.120178
0.934845 0.532654 0.120117
0.172821 0.541748 0.082581
0.191345 0.546448 0.087494
0.209625 0.549835 0.090973
0.228912 0.551941 0.093353
0.250214 0.554077 0.095703
0.273193 0.555969 0.097992
0.297485 0.557800 0.100281
0.322845 0.559418 0.102234
0.348297 0.560974 0.104401
0.372101 0.562195 0.106110
0.395508 0.563568 0.107758
0.419220 0.565063 0.109985
0.443390 0.566803 0.112091
0.467499 0.568756 0.114532
0.491852 0.570831 0.117126
0.516296 0.573120 0.119690
0.543243 0.575470 0.123444
0.574585 0.576050 0.128204
0.606110 0.572906 0.128754
0.636871 0.569611 0.128845
0.667084 0.567444 0.128906
0.697205 0.567200 0.128571
0.725189 0.567139 0.128326
0.751770 0.566986 0.128204
0.777222 0.566986 0.128052
0.801575 0.566956 0.127960
0.825012 0.566986 0.127777
0.847687 0.566986 0.127777
0.869720 0.567017 0.127625
0.891205 0.566956 0.127594
0.912354 0.566956 0.127472
0.932251 0.567108 0.127533
0.181183 0.573242 0.086029
0.199829 0.577972 0.090881
0.218201 0.581329 0.094299
0.237244 0.583527 0.096741
0.258606 0.585663 0.099152
0.281647 0.587524 0.101501
0.306030 0.589325 0.103699
0.331360 0.590942 0.105865
0.356873 0.592499 0.107910
0.380280 0.593689 0.109497
0.403320 0.594971 0.111298
0.426758 0.596466 0.113220
0.450409 0.598175 0.115448
0.474304 0.600067 0.117706
0.498322 0.602142 0.120331
0.522583 0.604340 0.122986
0.546814 0.606628 0.125702
0.573547 0.609070 0.129517
0.604218 0.609650 0.134338
0.634735 0.607269 0.135376
0.664612 0.603912 0.135529
0.693420 0.601105 0.135803
0.721375 0.600769 0.135681
0.748230 0.600769 0.135406
0.773834 0.600616 0.135254
0.798401 0.600647 0.135193
0.822021 0.600647 0.135071
0.844818 0.600677 0.134949
0.867004 0.600677 0.134766
0.888702 0.600708 0.134888
0.910034 0.600708 0.134796
0.929901 0.600677 0.134705
0.189758 0.604095 0.089386
0.208099 0.608978 0.094238
0.226532 0.612274 0.097534
0.245697 0.614380 0.100067
0.266968 0.616455 0.102631
0.290100 0.618347 0.104889
0.314545 0.620148 0.107025
0.339691 0.621796 0.109283
0.365204 0.623291 0.111328
0.388245 0.624329 0.112976
0.410950 0.625488 0.114594
0.434052 0.626892 0.116577
0.457397 0.628601 0.118683
0.480988 0.630432 0.121063
0.504791 0.632568 0.123444
0.528656 0.634735 0.126190
0.552704 0.637054 0.128784
0.576752 0.639496 0.131744
0.603271 0.642090 0.135590
0.633057 0.642761 0.140259
0.662659 0.640869 0.141998
0.691376 0.637787 0.142212
0.718475 0.635071 0.142548
0.744873 0.633789 0.142609
0.770599 0.633698 0.142517
0.795441 0.633667 0.142303
0.819214 0.633698 0.142273
0.842224 0.633606 0.142090
0.864563 0.633698 0.142029
0.886322 0.633575 0.141968
0.907837 0.633698 0.142029
0.927673 0.633820 0.141937
0.197662 0.632690 0.092773
0.216339 0.637299 0.097504
0.234650 0.640259 0.101105
0.253723 0.642212 0.103577
0.274933 0.644165 0.105927
0.298126 0.645966 0.108368
0.322540 0.647705 0.110657
0.347778 0.649445 0.112671
0.373199 0.651062 0.114868
0.395844 0.652222 0.116333
0.418274 0.653473 0.117920
0.440948 0.655090 0.119781
0.464081 0.656921 0.121979
0.487366 0.658936 0.124268
0.510925 0.661224 0.126617
0.534454 0.663635 0.129211
0.558380 0.666107 0.131958
0.582092 0.668854 0.134766
0.606079 0.671600 0.137756
0.632263 0.674438 0.141541
0.661163 0.675079 0.146179
0.689606 0.673920 0.148529
0.716888 0.671021 0.148926
0.742859 0.668365 0.149170
0.767914 0.666199 0.149445
0.792725 0.665833 0.149384
0.816620 0.665955 0.149261
0.839813 0.665955 0.149078
0.862305 0.665924 0.149078
0.884277 0.665894 0.149078
0.905914 0.665955 0.148926
0.925842 0.665894 0.148956
0.205322 0.657043 0.096252
0.223877 0.661621 0.100983
0.242157 0.664703 0.104401
0.261414 0.666809 0.106964
0.282745 0.668915 0.109467
0.305939 0.671021 0.111847
0.330292 0.673035 0.114014
0.355652 0.675018 0.116241
0.380829 0.677002 0.118195
0.403137 0.678375 0.119690
0.425293 0.679962 0.121216
0.447784 0.681793 0.123169
0.470551 0.683929 0.125183
0.493530 0.686157 0.127380
0.516815 0.688599 0.129761
0.540131 0.691254 0.132294
0.563690 0.694000 0.134979
0.587341 0.696930 0.137726
0.611023 0.699951 0.140594
0.634766 0.703033 0.143555
0.660461 0.705933 0.147583
0.688507 0.706573 0.152008
0.715393 0.706116 0.155060
0.741638 0.703491 0.155396
0.766663 0.700806 0.155731
0.790649 0.698547 0.156097
0.814270 0.697327 0.156097
0.837646 0.697296 0.156067
0.860260 0.697296 0.155945
0.882446 0.697266 0.155853
0.904144 0.697327 0.155914
0.924164 0.697296 0.155823
0.212677 0.680176 0.099548
0.231293 0.684692 0.104401
0.249603 0.687836 0.107971
0.268860 0.690155 0.110443
0.290192 0.692505 0.112823
0.313477 0.694855 0.115204
0.337830 0.697205 0.117554
0.363159 0.699524 0.119659
0.388245 0.701752 0.121582
0.410187 0.703400 0.123016
0.432068 0.705261 0.124512
0.454346 0.707367 0.126312
0.476776 0.709686 0.128326
0.499512 0.712158 0.130493
0.522614 0.714874 0.132874
0.545685 0.717712 0.135345
0.568970 0.720703 0.137939
0.592316 0.723785 0.140656
0.615845 0.726990 0.143494
0.639404 0.730286 0.146423
0.662689 0.733643 0.149323
0.687897 0.736664 0.153473
0.714783 0.737274 0.157654
0.740479 0.737640 0.161469
0.765625 0.735077 0.161896
0.789886 0.732574 0.162140
0.813171 0.730042 0.162445
0.835876 0.728241 0.162720
0.858429 0.727875 0.162750
0.880646 0.727936 0.162689
0.902527 0.727814 0.162567
0.922668 0.727997 0.162567
0.219635 0.702179 0.102997
0.238434 0.706696 0.107849
0.256714 0.709930 0.111267
0.276062 0.712463 0.113770
0.297424 0.715088 0.116241
0.320648 0.717682 0.118530
0.345154 0.720337 0.120880
0.370514 0.722992 0.122955
0.395264 0.725433 0.124878
0.416962 0.727356 0.126160
0.438507 0.729431 0.127625
0.460571 0.731750 0.129425
0.482727 0.734314 0.131378
0.505219 0.737091 0.133514
0.528076 0.739960 0.135742
0.550995 0.743011 0.138153
0.574036 0.746155 0.140839
0.597168 0.749481 0.143524
0.620483 0.752838 0.146271
0.643799 0.756317 0.149200
0.666931 0.759827 0.152191
0.689941 0.763367 0.155121
0.714569 0.766479 0.159180
0.740356 0.767120 0.163330
0.765045 0.767609 0.167236
0.789246 0.765503 0.168121
0.812622 0.763123 0.168396
0.835266 0.760956 0.168854
0.857330 0.758789 0.169037
0.879089 0.757477 0.169250
0.901215 0.757477 0.169189
0.921448 0.757446 0.169159
0.226532 0.722809 0.106262
0.245422 0.727020 0.111267
0.263489 0.730347 0.114563
0.282837 0.733093 0.117126
0.304291 0.735962 0.119537
0.327576 0.738922 0.121887
0.352020 0.742004 0.124084
0.377502 0.745209 0.126160
0.402039 0.748047 0.128021
0.423309 0.750183 0.129303
0.444641 0.752594 0.130646
0.466431 0.755127 0.132446
0.488434 0.757904 0.134277
0.510681 0.760864 0.136353
0.533264 0.763977 0.138611
0.556000 0.767212 0.141052
0.578857 0.770538 0.143616
0.601837 0.773987 0.146240
0.625000 0.777557 0.149017
0.647980 0.781189 0.151886
0.670990 0.784851 0.154846
0.693848 0.788544 0.157806
0.716309 0.792358 0.160767
0.740356 0.795471 0.164764
0.765198 0.796051 0.168854
0.788971 0.796631 0.172607
0.812256 0.795258 0.174194
0.834930 0.792877 0.174591
0.857086 0.790741 0.174988
0.878693 0.788635 0.175201
0.900024 0.786743 0.175598
0.920349 0.786316 0.175568
0.232941 0.741516 0.109558
0.251770 0.745392 0.114563
0.270050 0.748322 0.117981
0.289459 0.750885 0.120331
0.310822 0.753571 0.122955
0.334106 0.756500 0.125214
0.358582 0.759552 0.127319
0.384003 0.762848 0.129547
0.408264 0.766052 0.131378
0.429291 0.768738 0.132507
0.450470 0.771729 0.133789
0.471985 0.774872 0.135376
0.493835 0.778259 0.137268
0.515930 0.781799 0.139343
0.538239 0.785339 0.141449
0.560822 0.788849 0.143860
0.583374 0.792450 0.146362
0.606262 0.796112 0.149048
0.629181 0.799866 0.151703
0.652039 0.803711 0.154572
0.674896 0.807617 0.157471
0.697510 0.811493 0.160431
0.719910 0.815430 0.163422
0.742004 0.819275 0.166412
0.765350 0.822235 0.170471
0.789307 0.822510 0.174316
0.812256 0.822662 0.178131
0.834869 0.821259 0.179962
0.857117 0.818268 0.180267
0.878723 0.814880 0.180511
0.900208 0.811432 0.180725
0.920074 0.808380 0.181000
0.239380 0.759369 0.112610
0.258026 0.762848 0.117767
0.276306 0.765411 0.121155
0.295746 0.767670 0.123627
0.317047 0.770020 0.126221
0.340332 0.772614 0.128571
0.364990 0.775299 0.130707
0.390411 0.778229 0.132965
0.414429 0.781006 0.134705
0.435181 0.783417 0.135803
0.455994 0.786072 0.137085
0.477295 0.788910 0.138733
0.498840 0.791962 0.140503
0.520660 0.795166 0.142487
0.542908 0.798553 0.144653
0.565186 0.802002 0.147034
0.587677 0.805542 0.149536
0.610382 0.809143 0.152069
0.632996 0.812897 0.154816
0.655731 0.816650 0.157593
0.678375 0.820404 0.160553
0.700928 0.824188 0.163361
0.723145 0.827881 0.166473
0.745026 0.831635 0.169373
0.766785 0.835266 0.172424
0.789581 0.837341 0.176514
0.812622 0.836548 0.180328
0.835052 0.835754 0.183990
0.857239 0.832245 0.184448
0.879211 0.828613 0.184479
0.900665 0.825073 0.184784
0.920593 0.821594 0.185059
0.245270 0.776367 0.115784
0.264008 0.779572 0.120972
0.282379 0.781799 0.124359
0.301697 0.783813 0.126892
0.323212 0.785889 0.129333
0.346588 0.788055 0.131714
0.371002 0.790436 0.134003
0.396454 0.792908 0.136108
0.420227 0.795319 0.137848
0.440521 0.797333 0.138947
0.461212 0.799591 0.140228
0.482269 0.802032 0.141907
0.503662 0.804718 0.143707
0.525421 0.807465 0.145630
0.547363 0.810394 0.147919
0.569519 0.813324 0.150177
0.591705 0.816467 0.152679
0.614197 0.819641 0.155182
0.636749 0.822815 0.157959
0.659332 0.826111 0.160736
0.681702 0.829346 0.163666
0.704071 0.832611 0.166595
0.726135 0.835815 0.169556
0.748016 0.839020 0.172577
0.769470 0.842163 0.175690
0.790802 0.845276 0.178680
0.813049 0.846924 0.182617
0.835419 0.846130 0.186371
0.857666 0.843842 0.188324
0.879639 0.840179 0.188446
0.901184 0.836456 0.188660
0.921234 0.832977 0.188843
0.251068 0.792786 0.118835
0.269958 0.795593 0.123962
0.288239 0.797638 0.127319
0.307739 0.799255 0.129883
0.329010 0.801086 0.132355
0.352356 0.802917 0.134766
0.377014 0.804901 0.137085
0.402252 0.807007 0.139252
0.425720 0.808990 0.141083
0.445862 0.810730 0.142120
0.466309 0.812622 0.143311
0.487122 0.814697 0.144897
0.508301 0.816956 0.146667
0.529846 0.819336 0.148773
0.551636 0.821838 0.150909
0.573547 0.824402 0.153229
