assets/luts/ANDP-KodakEktachromeE100-32.CUBE
#Created by: Adobe Photoshop Export Color Lookup Plugin
#Copyright: (C) Copyright 2024 Andp Filmstyles
TITLE "Kodak Ektachrome 100 - 32"
#LUT size
LUT_3D_SIZE 8
#data domain
#LUT data points
DOMAIN_MIN 0.000000 0.000000 0.000000
DOMAIN_MAX 0.903226 0.903226 0.903226
0.081177 0.069580 0.073700
0.150818 0.071899 0.064972
0.235718 0.075134 0.060577
0.366791 0.083984 0.063171
0.526031 0.099915 0.070770
0.655945 0.112701 0.076538
0.744293 0.120026 0.079590
0.809601 0.123077 0.080902
0.086517 0.134949 0.105316
0.150116 0.137665 0.092224
0.234558 0.140198 0.080811
0.363770 0.145782 0.070374
0.523865 0.159302 0.076263
0.654999 0.173828 0.082520
0.743713 0.182343 0.085876
0.809418 0.186096 0.087372
0.092926 0.206573 0.144165
0.147217 0.212189 0.134644
0.233856 0.217163 0.118866
0.361115 0.225555 0.102875
0.523010 0.242126 0.091919
0.653259 0.253174 0.092102
0.742340 0.253265 0.094086
0.808960 0.257721 0.095795
0.100708 0.287994 0.192810
0.152405 0.295837 0.185455
0.219971 0.304047 0.172180
0.359131 0.311401 0.148956
0.518677 0.327118 0.133972
0.653595 0.339111 0.119904
0.741028 0.345215 0.112854
0.808472 0.345886 0.109375
0.111237 0.394897 0.259003
0.160217 0.405640 0.254028
0.217041 0.417450 0.245453
0.329468 0.427155 0.218994
0.520874 0.434235 0.191162
0.657379 0.445709 0.177063
0.746002 0.449585 0.166473
0.813721 0.449219 0.157318
0.124786 0.528839 0.338867
0.171631 0.540894 0.334351
0.226044 0.554626 0.327301
0.287964 0.565979 0.316498
0.489624 0.586151 0.272766
0.672333 0.578308 0.240417
0.763733 0.579681 0.227783
0.834351 0.577545 0.216431
0.140411 0.639069 0.400116
0.188751 0.651794 0.394409
0.243805 0.664734 0.386688
0.306213 0.676605 0.375671
0.399872 0.691833 0.357941
0.663696 0.719971 0.305420
0.778168 0.707153 0.283508
0.855927 0.705139 0.271576
0.152008 0.727142 0.425629
0.204834 0.738953 0.423370
0.265717 0.750946 0.420288
0.342010 0.763245 0.413086
0.419830 0.775391 0.399872
0.601166 0.800659 0.365692
0.770935 0.817078 0.333893
0.861725 0.809052 0.316284
0.087555 0.074219 0.135101
0.157288 0.067810 0.114288
0.238831 0.069214 0.101166
0.366028 0.081085 0.102264
0.526947 0.098114 0.110809
0.657776 0.111511 0.117126
0.746307 0.119202 0.120483
0.811493 0.122253 0.121857
0.090912 0.139282 0.157562
0.151093 0.140503 0.145905
0.237885 0.143066 0.129852
0.371094 0.147919 0.113953
0.529602 0.160828 0.119171
0.658325 0.174988 0.125183
0.746216 0.183380 0.128479
0.811493 0.186981 0.129913
0.097595 0.214539 0.195770
0.150879 0.216980 0.187469
0.235840 0.219696 0.166779
0.364288 0.228119 0.148712
0.526154 0.244568 0.136261
0.656433 0.255493 0.135193
0.744781 0.254547 0.136597
0.810944 0.258698 0.138245
0.105316 0.297455 0.244720
0.156555 0.304108 0.239136
0.223602 0.309753 0.224274
0.363068 0.314514 0.195068
0.520844 0.330261 0.180237
0.654144 0.341888 0.165955
0.741241 0.347748 0.158112
0.809265 0.348358 0.152893
0.115753 0.404785 0.313019
0.165283 0.420776 0.312561
0.219971 0.430603 0.304596
0.333435 0.435974 0.270325
0.524048 0.440338 0.238739
0.658691 0.451172 0.224396
0.746582 0.454559 0.213593
0.814056 0.454010 0.204346
0.129700 0.539032 0.394775
0.176849 0.553406 0.392914
0.228912 0.564117 0.386108
0.290985 0.575562 0.373138
0.493073 0.592316 0.321320
0.674408 0.583496 0.287476
0.764771 0.584808 0.274933
0.835327 0.582642 0.263489
0.145874 0.648987 0.457184
0.192413 0.658997 0.452362
0.246613 0.670685 0.444183
0.309723 0.683136 0.432068
0.405914 0.695526 0.405396
0.665558 0.723175 0.352356
0.779297 0.710175 0.329742
0.856293 0.708252 0.318024
0.151886 0.729156 0.471802
0.205292 0.741577 0.470215
0.266602 0.753967 0.468872
0.345764 0.767487 0.466431
0.423584 0.777740 0.448181
0.605316 0.802460 0.411743
0.772003 0.818573 0.380066
0.862518 0.810608 0.362183
0.096497 0.081451 0.207581
0.163727 0.071930 0.179077
0.250824 0.066406 0.156586
0.365784 0.071503 0.146301
0.526794 0.088348 0.147247
0.660156 0.107025 0.154694
0.747742 0.115662 0.158569
0.813049 0.118835 0.160126
0.098907 0.145935 0.229492
0.159576 0.147644 0.218689
0.247986 0.137146 0.181732
0.373932 0.140656 0.158966
0.534485 0.153320 0.158722
0.661743 0.173035 0.165771
0.748322 0.182220 0.169525
0.813293 0.185883 0.171051
0.103180 0.223114 0.258270
0.158478 0.226288 0.251282
0.241119 0.232391 0.235657
0.375763 0.239166 0.209015
0.535767 0.250641 0.185669
0.660217 0.258698 0.179260
0.747345 0.257050 0.179901
0.812988 0.259674 0.181244
0.112549 0.318298 0.313110
0.164734 0.324188 0.308990
0.229218 0.328125 0.296722
0.371155 0.327972 0.255341
0.525238 0.336670 0.229736
0.656036 0.346344 0.213715
0.743103 0.351593 0.205231
0.811127 0.352112 0.197906
0.123016 0.424530 0.375824
0.171600 0.436096 0.375824
0.226715 0.452759 0.373779
0.337982 0.454407 0.335785
0.529999 0.451050 0.290009
0.661346 0.459534 0.273834
0.748291 0.462402 0.262787
0.814941 0.461823 0.253876
0.136658 0.553345 0.454926
0.183563 0.566162 0.453918
0.237244 0.580872 0.450287
0.296478 0.589996 0.440338
0.498047 0.605103 0.379333
0.677490 0.591400 0.336609
0.766663 0.592682 0.324219
0.837219 0.590607 0.312714
0.152405 0.661194 0.517456
0.201202 0.672516 0.515411
0.254517 0.682281 0.508362
0.314087 0.691498 0.498901
0.415802 0.705872 0.470795
0.668091 0.727661 0.401062
0.780884 0.714630 0.377563
0.857330 0.712860 0.365906
0.155762 0.739410 0.525360
0.207214 0.748657 0.525391
0.267578 0.759216 0.525848
0.349152 0.773712 0.528809
0.429321 0.785431 0.517944
0.611389 0.806519 0.463898
0.773407 0.820496 0.427460
0.863342 0.812714 0.409424
0.113129 0.094452 0.320251
0.174469 0.083221 0.277008
0.260437 0.070160 0.233978
0.379333 0.066956 0.209351
0.530792 0.080597 0.196625
0.662750 0.093170 0.192902
0.752563 0.104248 0.194733
0.817230 0.112396 0.197418
0.112854 0.157379 0.338989
0.172028 0.160583 0.336029
0.257263 0.143982 0.272583
0.384644 0.131195 0.222198
0.537048 0.141205 0.206665
0.664246 0.157532 0.205231
0.753296 0.168030 0.206299
0.818268 0.177612 0.209503
0.114868 0.234467 0.360291
0.170685 0.237823 0.358002
0.251556 0.249603 0.357269
0.389282 0.230896 0.272034
0.543243 0.246735 0.242310
0.668518 0.253174 0.227997
0.753876 0.250305 0.223511
0.818329 0.251770 0.222351
0.119598 0.326294 0.390259
0.174561 0.332886 0.387665
0.245087 0.349823 0.389496
0.390411 0.376526 0.371796
0.546570 0.380859 0.331543
0.668396 0.377502 0.296173
0.751556 0.370514 0.271118
0.817383 0.363708 0.253235
0.134277 0.462067 0.472870
0.186371 0.476379 0.477020
0.242981 0.494019 0.482758
0.344208 0.510559 0.470703
0.553070 0.504303 0.396790
0.673615 0.497528 0.357819
0.755096 0.486359 0.328552
0.818939 0.475586 0.308258
0.149261 0.588867 0.546448
0.196960 0.598175 0.547485
0.249542 0.610260 0.550720
0.310608 0.623657 0.547272
0.504211 0.639526 0.486847
0.687378 0.621796 0.413666
0.770966 0.608307 0.381683
0.839966 0.601379 0.364441
0.158112 0.675568 0.578156
0.207092 0.684875 0.582703
0.265045 0.699463 0.586426
0.329376 0.712708 0.583618
0.432220 0.721375 0.555084
0.670654 0.740753 0.471680
0.784027 0.724518 0.433044
0.858612 0.718842 0.415924
0.162506 0.753082 0.583588
0.215576 0.762512 0.584229
0.277344 0.772339 0.585266
0.358734 0.784485 0.590027
0.436676 0.793915 0.590790
0.620056 0.815643 0.538086
0.775940 0.827698 0.487457
0.864410 0.815796 0.459015
0.137665 0.114044 0.485168
0.193329 0.106354 0.440460
0.273499 0.087494 0.364990
0.387146 0.072510 0.307373
0.548645 0.069946 0.266602
0.676727 0.084564 0.251770
0.758240 0.093903 0.243286
0.821136 0.096039 0.238129
0.136475 0.178223 0.513611
0.193604 0.180542 0.510437
0.269348 0.172943 0.447144
0.388855 0.139618 0.336578
0.556366 0.127838 0.279388
0.679993 0.142212 0.263763
0.759857 0.154053 0.255615
0.820740 0.159302 0.251740
0.137207 0.259583 0.538696
0.193024 0.262878 0.537689
0.264587 0.272003 0.538513
0.388062 0.246216 0.420410
0.563354 0.223389 0.312653
0.682190 0.231110 0.288177
0.761627 0.229370 0.274139
0.821075 0.232056 0.269073
0.138489 0.346619 0.556427
0.193970 0.352386 0.556915
0.258606 0.364014 0.559174
0.381531 0.412720 0.567322
0.572845 0.375763 0.424347
0.683929 0.386597 0.387909
0.764801 0.381775 0.356354
0.828400 0.370514 0.328003
0.143097 0.461212 0.576447
0.198822 0.473083 0.579315
0.260773 0.490906 0.585449
0.370148 0.538269 0.600525
0.582581 0.588684 0.587097
0.696289 0.584534 0.544312
0.776978 0.574188 0.503174
0.841370 0.557922 0.462555
0.162628 0.624023 0.664032
0.215271 0.636658 0.669769
0.273804 0.651031 0.676453
0.340851 0.667694 0.683258
0.521759 0.688934 0.660156
0.705872 0.693298 0.598907
0.789795 0.684875 0.558990
0.857758 0.673676 0.517792
0.169586 0.726379 0.677734
0.223602 0.734467 0.686798
0.283966 0.743439 0.697479
0.351929 0.754089 0.710907
0.460571 0.761719 0.705658
0.671509 0.778107 0.648590
0.794922 0.776337 0.594818
0.869904 0.765717 0.552612
0.173553 0.782318 0.663483
0.225739 0.789612 0.673370
0.289032 0.799164 0.685272
0.371704 0.813812 0.701447
0.450073 0.825104 0.708008
0.631042 0.839142 0.683655
0.775146 0.851196 0.627045
0.870026 0.844116 0.575653
0.155426 0.129272 0.601501
0.206787 0.124023 0.574921
0.286896 0.111847 0.520203
0.388123 0.092102 0.443329
0.547821 0.075958 0.376465
0.697968 0.071869 0.326019
0.785797 0.078400 0.313416
0.842041 0.084717 0.307068
0.154358 0.196472 0.630371
0.209381 0.196655 0.624268
0.270142 0.190033 0.593445
0.381989 0.169250 0.505157
0.557556 0.132507 0.391907
0.700867 0.127563 0.340851
0.788544 0.133820 0.328766
0.843811 0.138947 0.321167
0.153656 0.278473 0.669556
0.208710 0.280396 0.661469
0.273743 0.285156 0.655304
0.362122 0.283417 0.611298
0.569183 0.227966 0.442505
0.702911 0.205566 0.364777
0.790070 0.203064 0.349274
0.845978 0.200989 0.338928
0.154297 0.369415 0.706512
0.208832 0.373413 0.699188
0.269287 0.380768 0.690979
0.363983 0.419495 0.691071
0.576782 0.390900 0.569275
0.708008 0.345734 0.453461
0.789703 0.342529 0.418182
0.847595 0.334717 0.391571
0.158325 0.481201 0.742615
0.212708 0.488586 0.736664
0.272705 0.501648 0.730103
0.359375 0.535553 0.727692
0.559021 0.604095 0.722748
0.714874 0.569580 0.626587
0.794067 0.572418 0.600067
0.856812 0.566895 0.574402
0.165161 0.616577 0.768188
0.221527 0.626495 0.768738
0.282257 0.638245 0.764740
0.352112 0.654663 0.760468
0.539886 0.705444 0.754608
0.713745 0.731689 0.736877
0.800018 0.731476 0.714844
0.869720 0.729309 0.693512
0.168243 0.761261 0.777618
0.227661 0.766113 0.782745
0.293976 0.771698 0.788361
0.366669 0.778870 0.795502
0.481537 0.789246 0.799744
0.679840 0.803650 0.779480
0.803101 0.812714 0.748993
0.877289 0.807892 0.726166
0.198059 0.838013 0.776855
0.256836 0.841431 0.782074
0.322510 0.845551 0.788177
0.395203 0.851074 0.796204
0.464813 0.855499 0.802490
0.643402 0.863586 0.804779
0.776276 0.873749 0.781464
0.879028 0.879974 0.750946
0.165161 0.138184 0.667114
0.214691 0.132904 0.645050
0.292725 0.125580 0.606720
0.386169 0.108734 0.545959
0.542023 0.084656 0.471985
0.702454 0.075867 0.414429
0.799103 0.070496 0.376190
0.856689 0.072021 0.371002
0.164307 0.207672 0.696960
0.219452 0.207733 0.688049
0.273132 0.198700 0.665741
0.375183 0.191803 0.612152
0.547821 0.143463 0.490967
0.707581 0.130402 0.429352
0.799713 0.124908 0.390533
0.856689 0.126740 0.385040
0.163513 0.291351 0.736206
0.218689 0.292938 0.726929
0.280457 0.295013 0.718414
0.352142 0.292999 0.697266
0.553009 0.249908 0.563110
0.713379 0.210541 0.457825
0.800568 0.192200 0.411377
0.856903 0.188019 0.402008
0.162567 0.383026 0.778717
0.216797 0.385925 0.770416
0.276215 0.391357 0.760956
0.357147 0.420746 0.758575
0.556458 0.438141 0.700684
0.721405 0.351685 0.555573
0.805420 0.318604 0.478424
0.860718 0.308655 0.452606
0.164459 0.493591 0.827057
0.218567 0.499634 0.819427
0.278046 0.511627 0.811249
0.353668 0.539215 0.805939
0.530334 0.606293 0.803345
0.719818 0.581116 0.719696
0.809509 0.535309 0.645386
0.871399 0.523163 0.616669
0.166656 0.622711 0.862579
0.223633 0.629852 0.861206
0.284973 0.639191 0.855682
0.352112 0.651520 0.845520
0.514160 0.699768 0.836823
0.707886 0.738098 0.820618
0.810333 0.716888 0.768738
0.878235 0.718567 0.750885
0.160187 0.748535 0.843292
0.221436 0.753448 0.844879
0.289795 0.759216 0.846893
0.364746 0.767120 0.849945
0.484985 0.785187 0.855225
0.693176 0.818420 0.850342
0.804749 0.827667 0.835388
0.882050 0.827942 0.819031
0.195831 0.861481 0.855164
0.259949 0.863190 0.857086
0.330811 0.865417 0.859467
0.401703 0.868378 0.862671
0.471771 0.870972 0.865387
0.656036 0.883545 0.869476
0.780914 0.887238 0.866028
0.881744 0.895752 0.844818
0.169891 0.143005 0.708801
0.218964 0.138153 0.689240
0.292450 0.131042 0.658173
0.381989 0.118164 0.609375
0.522430 0.097961 0.548157
0.707794 0.077332 0.484528
0.807159 0.073578 0.448975
0.863342 0.069489 0.424805
0.169281 0.214294 0.738770
0.224854 0.214569 0.729675
0.277710 0.207031 0.710846
0.364655 0.196777 0.671112
0.527832 0.160126 0.571350
0.713989 0.131592 0.498627
0.809570 0.126862 0.464600
0.865143 0.122406 0.441406
0.168396 0.299042 0.778748
0.223785 0.300537 0.769379
0.285278 0.302887 0.759521
0.350006 0.300476 0.744873
0.528442 0.272888 0.650513
0.718628 0.214752 0.529785
0.812286 0.194336 0.487701
0.867584 0.181122 0.460358
0.167786 0.392181 0.823242
0.222290 0.394806 0.814819
0.281952 0.399841 0.805145
0.353851 0.420258 0.801697
0.509308 0.450531 0.780243
0.720367 0.361420 0.625366
0.815552 0.325714 0.561676
0.873535 0.296875 0.514984
0.167633 0.500397 0.875427
0.221313 0.505310 0.868164
0.280640 0.516296 0.860687
0.350708 0.539398 0.855194
0.505615 0.604462 0.855957
0.715820 0.605316 0.797760
0.813416 0.543945 0.716736
0.880157 0.504028 0.664276
0.166016 0.629608 0.915070
0.223206 0.635773 0.914337
0.285675 0.644897 0.912109
0.352448 0.657013 0.903198
0.490234 0.700348 0.896667
0.698761 0.742279 0.879700
0.811707 0.725281 0.836517
0.886444 0.696045 0.790894
0.158569 0.746948 0.907104
0.219208 0.751312 0.907135
0.286957 0.756866 0.907318
0.361603 0.764648 0.907928
0.464966 0.779236 0.910339
0.684692 0.812714 0.905518
0.802856 0.829498 0.894989
0.888031 0.817169 0.862671
0.185638 0.849365 0.900604
0.251648 0.851257 0.901428
0.324707 0.853790 0.902618
0.398499 0.857117 0.904388
0.469299 0.859924 0.906097
0.661713 0.883514 0.913971
0.793427 0.900665 0.919312
0.882477 0.903778 0.908234
