assets/luts/ANDP-KodakPortra800-32bit.CUBE
#Created by: Adobe Photoshop Export Color Lookup Plugin
#Copyright: (C) Copyright 2024 Andp Filmstyles
TITLE "ANDP Kodak Portra 800 - 32"
#LUT size
LUT_3D_SIZE 5
#data domain
#LUT data points
DOMAIN_MIN 0.000000 0.000000 0.000000
DOMAIN_MAX 0.903226 0.903226 0.903226
0.038330 0.036896 0.048981
0.255035 0.028748 0.045135
0.551575 0.016724 0.036774
0.805115 0.007324 0.044250
0.979034 0.001984 0.067780
0.087585 0.219849 0.061981
0.235413 0.237396 0.079712
0.513458 0.230835 0.063110
0.747192 0.226135 0.058197
0.908264 0.224426 0.057800
0.155334 0.476013 0.077545
0.304932 0.493958 0.096283
0.480774 0.506348 0.111389
0.705872 0.497681 0.113770
0.875732 0.497528 0.112793
0.212677 0.680176 0.099548
0.363159 0.699524 0.119659
0.522614 0.714874 0.132874
0.687897 0.736664 0.153473
0.858429 0.727875 0.162750
0.256714 0.808655 0.121704
0.408173 0.820648 0.142487
0.555725 0.832916 0.153809
0.710144 0.848755 0.172607
0.858490 0.862823 0.194885
0.059204 0.074585 0.209320
0.229492 0.045380 0.204498
0.517761 0.027618 0.198425
0.764343 0.017212 0.212891
0.938354 0.011353 0.228516
0.069000 0.208557 0.200409
0.237335 0.216003 0.205353
0.513855 0.205780 0.188751
0.746155 0.199799 0.188568
0.905731 0.198303 0.192261
0.124115 0.447693 0.213562
0.303162 0.465637 0.228210
0.479950 0.479309 0.246643
0.706940 0.471741 0.246674
0.876160 0.471313 0.247681
0.177124 0.646790 0.237244
0.360931 0.668152 0.257751
0.521484 0.685547 0.273560
0.686340 0.708069 0.295044
0.859192 0.700470 0.300385
0.219299 0.788025 0.258026
0.405945 0.805908 0.282715
0.554260 0.817017 0.296509
0.708740 0.831970 0.316162
0.857208 0.844452 0.337158
0.086060 0.119995 0.413910
0.245453 0.100830 0.415497
0.482758 0.040863 0.406647
0.723907 0.030121 0.421478
0.905457 0.022797 0.436737
0.096130 0.259979 0.403748
0.252502 0.273285 0.415283
0.476440 0.223511 0.394012
0.705963 0.220001 0.398376
0.876068 0.218170 0.403168
0.106476 0.421631 0.383423
0.265228 0.435333 0.394318
0.482178 0.444427 0.400848
0.709961 0.442596 0.402222
0.878082 0.441315 0.404694
0.152588 0.625793 0.412476
0.319824 0.637604 0.421997
0.522827 0.652893 0.435547
0.687073 0.675385 0.456116
0.862183 0.670532 0.458435
0.192474 0.778809 0.436310
0.362976 0.789062 0.444885
0.555298 0.803314 0.459686
0.709625 0.817749 0.480042
0.858215 0.828278 0.499176
0.111664 0.153961 0.584320
0.263275 0.141876 0.591858
0.486023 0.094879 0.592194
0.698242 0.040649 0.601562
0.886322 0.033112 0.615723
0.121094 0.297638 0.575165
0.270264 0.315155 0.590637
0.485474 0.278229 0.586365
0.677338 0.236633 0.575562
0.855865 0.234619 0.580963
0.133301 0.464355 0.563171
0.285431 0.481628 0.578156
0.491852 0.489410 0.584167
0.683258 0.453125 0.573792
0.859558 0.453003 0.578033
0.145203 0.608154 0.556427
0.300018 0.626282 0.571838
0.506348 0.636200 0.579193
0.689941 0.646210 0.587555
0.866119 0.646240 0.590271
0.180817 0.771332 0.578674
0.341858 0.786285 0.591003
0.538147 0.795654 0.597900
0.712036 0.809937 0.611908
0.860413 0.818787 0.634247
0.131561 0.177704 0.701843
0.279907 0.169952 0.719269
0.496582 0.126404 0.728882
0.692352 0.088531 0.746216
0.876068 0.040863 0.767090
0.140900 0.323639 0.699341
0.286285 0.343353 0.717133
0.496887 0.311371 0.723969
0.682587 0.279266 0.731995
0.842407 0.247589 0.728882
0.153351 0.492737 0.696869
0.301117 0.512390 0.714355
0.504059 0.521912 0.722137
0.688049 0.496613 0.730957
0.846283 0.466339 0.726013
0.167450 0.635986 0.700165
0.317169 0.655090 0.717438
0.519958 0.665253 0.725983
0.697632 0.673767 0.733826
0.856232 0.650970 0.729309
0.179565 0.764587 0.703430
0.331604 0.784515 0.720642
0.533844 0.796509 0.729950
0.708557 0.804993 0.736786
0.862885 0.813141 0.745148
